;FLAVOR:Marlin
;TIME:14955
;Filament used: 14.754m
;Layer height: 0.2
;MINX:72.588
;MINY:71.835
;MINZ:0.2
;MAXX:162.3
;MAXY:162.981
;MAXZ:23
;Generated with Cura_SteamEngine 4.12.0
M140 S50
M105
M190 S50
M104 S200
M105
M109 S200
M82 ;absolute extrusion mode
; Ender 3 Custom Start G-code
G92 E0 ; Reset Extruder
G28 ; Home all axes
M420 S1 Z2 ;Enable ABL using saved Mesh and Fade Height
G1 Z2.0 F3000 ; Move Z Axis up little to prevent scratching of Heat Bed
G1 X0.1 Y20 Z0.3 F5000.0 ; Move to start position
G1 X0.1 Y200.0 Z0.3 F1500.0 E15 ; Draw the first line
G1 X0.4 Y200.0 Z0.3 F5000.0 ; Move to side a little
G1 X0.4 Y20 Z0.3 F1500.0 E30 ; Draw the second line
G92 E0 ; Reset Extruder
G1 Z2.0 F3000 ; Move Z Axis up little to prevent scratching of Heat Bed
G1 X5 Y20 Z0.3 F5000.0 ; Move over to prevent blob squish
G92 E0
G92 E0
G1 F1500 E-6
;LAYER_COUNT:98
;LAYER:0
M107
G0 F9000 X111.5 Y72.7 Z0.2
;TYPE:SUPPORT
G1 F1500 E0
G1 F1800 X123.5 Y72.702 E0.39912
G1 X123.5 Y75.3 E0.48553
G1 X111.5 Y75.3 E0.88465
G1 X111.5 Y72.7 E0.97113
G0 F9000 X111.9 Y73.1
G1 F1800 X123.1 Y73.102 E1.34364
G1 X123.1 Y74.9 E1.40344
G1 X111.9 Y74.9 E1.77596
G1 X111.9 Y73.1 E1.83583
G0 F9000 X112 Y73.181
G1 F1800 X112 Y74.82 E1.89034
G0 F9000 X111.98 Y74
G1 F1800 X123.02 Y74 E2.25753
G0 F9000 X122 Y73.182
G1 F1800 X122 Y74.82 E2.31201
G0 F9000 X120 Y74.82
G1 F1800 X120 Y73.182 E2.36649
G0 F9000 X118 Y73.182
G1 F1800 X118 Y74.82 E2.42097
G0 F9000 X116 Y74.82
G1 F1800 X116 Y73.181 E2.47549
G0 F9000 X114 Y73.181
G1 F1800 X114 Y74.82 E2.53
G1 F1500 E-3.47
;MESH:lightpadbottom.stl
G0 F9000 X114 Y76.165
G0 X114 Y76.835
G0 X114 Y78.71
G0 X115.152 Y78.674
G0 X125.682 Y78.682
G0 X125.682 Y73.682
G0 X152.442 Y73.671
G0 X154.22 Y73.845
G0 X155.876 Y74.347
G0 X157.403 Y75.165
G0 X158.74 Y76.26
G0 X159.835 Y77.597
G0 X160.653 Y79.124
G0 X161.155 Y80.78
G0 X161.329 Y82.558
G0 X161.329 Y152.442
G0 X161.155 Y154.22
G0 X160.653 Y155.876
G0 X159.835 Y157.403
G0 X158.74 Y158.74
G0 X157.403 Y159.835
G0 X155.876 Y160.653
G0 X154.535 Y161.058
G0 X152.452 Y161.5
;TYPE:WALL-INNER
G1 F1500 E2.53
G1 F1800 X82.548 Y161.5 E4.85502
G1 X80.746 Y161.323 E4.91524
G1 X79.059 Y160.812 E4.97387
G1 X77.503 Y159.978 E5.03258
G1 X76.139 Y158.861 E5.09122
G1 X75.022 Y157.497 E5.14986
G1 X74.188 Y155.941 E5.20858
G1 X73.677 Y154.254 E5.2672
G1 X73.5 Y152.452 E5.32743
G1 X73.5 Y82.548 E7.65244
G1 X73.677 Y80.746 E7.71267
G1 X74.188 Y79.059 E7.7713
G1 X75.022 Y77.503 E7.83001
G1 X76.139 Y76.139 E7.88865
G1 X77.503 Y75.022 E7.94729
G1 X79.059 Y74.188 E8.00601
G1 X80.746 Y73.677 E8.06463
G1 X82.548 Y73.5 E8.12486
G1 X109.5 Y73.5 E9.02128
G1 X109.5 Y78.5 E9.18758
G1 X125.5 Y78.5 E9.71975
G1 X125.5 Y73.5 E9.88605
G1 X152.452 Y73.5 E10.78247
G1 X154.254 Y73.677 E10.8427
G1 X155.941 Y74.188 E10.90133
G1 X157.497 Y75.022 E10.96004
G1 X158.861 Y76.139 E11.01868
G1 X159.978 Y77.503 E11.07732
G1 X160.812 Y79.059 E11.13604
G1 X161.323 Y80.746 E11.19466
G1 X161.5 Y82.548 E11.25489
G1 X161.5 Y152.452 E13.5799
G1 X161.323 Y154.254 E13.64013
G1 X160.812 Y155.941 E13.69875
G1 X159.978 Y157.497 E13.75747
G1 X158.861 Y158.861 E13.81611
G1 X157.497 Y159.978 E13.87475
G1 X155.941 Y160.812 E13.93347
G1 X154.254 Y161.323 E13.99209
G1 X152.452 Y161.5 E14.05232
G0 F9000 X152.471 Y161.9
G1 F1800 X82.529 Y161.9 E16.3786
G1 X80.666 Y161.717 E16.44086
G1 X78.904 Y161.183 E16.5021
G1 X77.281 Y160.314 E16.56333
G1 X75.855 Y159.145 E16.62466
G1 X74.686 Y157.719 E16.68599
G1 X73.817 Y156.096 E16.74722
G1 X73.283 Y154.334 E16.80845
G1 X73.1 Y152.471 E16.87072
G1 X73.1 Y82.529 E19.197
G1 X73.283 Y80.666 E19.25926
G1 X73.817 Y78.904 E19.32049
G1 X74.686 Y77.281 E19.38173
G1 X75.855 Y75.855 E19.44306
G1 X77.281 Y74.686 E19.50438
G1 X78.904 Y73.817 E19.56562
G1 X80.666 Y73.283 E19.62685
G1 X82.529 Y73.1 E19.68912
G1 X109.9 Y73.1 E20.59948
G1 X109.9 Y78.1 E20.76578
G1 X125.1 Y78.1 E21.27133
G1 X125.1 Y73.1 E21.43763
G1 X152.471 Y73.1 E22.348
G1 X154.334 Y73.283 E22.41026
G1 X156.096 Y73.817 E22.4715
G1 X157.719 Y74.686 E22.53273
G1 X159.145 Y75.855 E22.59406
G1 X160.314 Y77.281 E22.65539
G1 X161.183 Y78.904 E22.71662
G1 X161.717 Y80.666 E22.77785
G1 X161.9 Y82.529 E22.84012
G1 X161.9 Y152.471 E25.1664
G1 X161.717 Y154.334 E25.22866
G1 X161.183 Y156.096 E25.28989
G1 X160.314 Y157.719 E25.35113
G1 X159.145 Y159.145 E25.41246
G1 X157.719 Y160.314 E25.47378
G1 X156.096 Y161.183 E25.53502
G1 X154.334 Y161.717 E25.59625
G1 X152.471 Y161.9 E25.65852
G0 F9000 X152.49 Y162.3
;TYPE:WALL-OUTER
G1 F1800 X82.51 Y162.3 E27.98606
G1 X80.586 Y162.111 E28.05036
G1 X78.749 Y161.554 E28.11421
G1 X77.059 Y160.65 E28.17795
G1 X75.571 Y159.429 E28.24197
G1 X74.35 Y157.941 E28.30599
G1 X73.446 Y156.251 E28.36974
G1 X72.889 Y154.414 E28.43358
G1 X72.7 Y152.49 E28.49788
G1 X72.7 Y82.51 E30.82543
G1 X72.889 Y80.586 E30.88973
G1 X73.446 Y78.749 E30.95357
G1 X74.35 Y77.059 E31.01732
G1 X75.571 Y75.571 E31.08134
G1 X77.059 Y74.35 E31.14536
G1 X78.749 Y73.446 E31.20911
G1 X80.586 Y72.889 E31.27295
G1 X82.51 Y72.7 E31.33725
G1 X110.3 Y72.7 E32.26155
G1 X110.3 Y77.7 E32.42785
G1 X124.7 Y77.7 E32.9068
G1 X124.7 Y72.7 E33.0731
G1 X152.49 Y72.7 E33.9974
G1 X154.414 Y72.889 E34.0617
G1 X156.251 Y73.446 E34.12555
G1 X157.941 Y74.35 E34.18929
G1 X159.429 Y75.571 E34.25331
G1 X160.65 Y77.059 E34.31733
G1 X161.554 Y78.749 E34.38108
G1 X162.111 Y80.586 E34.44492
G1 X162.3 Y82.51 E34.50922
G1 X162.3 Y152.49 E36.83677
G1 X162.111 Y154.414 E36.90107
G1 X161.554 Y156.251 E36.96491
G1 X160.65 Y157.941 E37.02866
G1 X159.429 Y159.429 E37.09268
G1 X157.941 Y160.65 E37.1567
G1 X156.251 Y161.554 E37.22045
G1 X154.414 Y162.111 E37.28429
G1 X152.49 Y162.3 E37.34859
G0 F9000 X152.469 Y161.861
G0 X152.433 Y161.11
;TYPE:SKIN
G1 F1800 X82.567 Y161.11 E39.67235
G1 X80.821 Y160.939 E39.7307
G1 X79.206 Y160.45 E39.78682
G1 X77.724 Y159.655 E39.84276
G1 X76.416 Y158.584 E39.89898
G1 X75.345 Y157.276 E39.95521
G1 X74.55 Y155.794 E40.01115
G1 X74.061 Y154.179 E40.06727
G1 X73.89 Y152.433 E40.12562
G1 X73.89 Y82.567 E42.44937
G1 X74.061 Y80.821 E42.50772
G1 X74.55 Y79.206 E42.56385
G1 X75.345 Y77.724 E42.61978
G1 X76.416 Y76.416 E42.67601
G1 X77.724 Y75.345 E42.73224
G1 X79.206 Y74.55 E42.78817
G1 X80.821 Y74.061 E42.8443
G1 X82.567 Y73.89 E42.90265
G1 X109.11 Y73.89 E43.78547
G1 X109.11 Y78.89 E43.95177
G1 X125.89 Y78.89 E44.50988
G1 X125.89 Y73.89 E44.67618
G1 X152.433 Y73.89 E45.559
G1 X154.179 Y74.061 E45.61735
G1 X155.794 Y74.55 E45.67347
G1 X157.276 Y75.345 E45.72941
G1 X158.584 Y76.416 E45.78564
G1 X159.655 Y77.724 E45.84186
G1 X160.45 Y79.206 E45.8978
G1 X160.939 Y80.821 E45.95392
G1 X161.11 Y82.567 E46.01227
G1 X161.11 Y152.433 E48.33603
G1 X160.939 Y154.179 E48.39438
G1 X160.45 Y155.794 E48.4505
G1 X159.655 Y157.276 E48.50644
G1 X158.584 Y158.584 E48.56266
G1 X157.276 Y159.655 E48.61889
G1 X155.794 Y160.45 E48.67483
G1 X154.179 Y160.939 E48.73095
G1 X152.433 Y161.11 E48.7893
G1 F1500 E42.7893
G0 F9000 X152.433 Y161.39
G0 X82.558 Y161.329
G0 X80.78 Y161.155
G0 X79.439 Y160.75
G0 X78.139 Y160.194
G1 F1500 E48.7893
G0 F9000 X78.348 Y159.806
G1 F1800 X75.191 Y156.65 E48.93777
G0 F9000 X74.804 Y156.857
G0 X74.217 Y155.656
G0 X74.637 Y155.53
G1 F1800 X79.468 Y160.361 E49.16501
G0 F9000 X80.279 Y160.607
G1 F1800 X74.391 Y154.718 E49.44198
G0 F9000 X74.2 Y153.961
G1 F1800 X81.036 Y160.798 E49.76355
G0 F9000 X81.663 Y160.859
G1 F1800 X74.138 Y153.334 E50.1175
G0 F9000 X74.077 Y152.707
G1 F1800 X82.29 Y160.921 E50.50384
G0 F9000 X82.884 Y160.949
G1 F1800 X74.049 Y152.114 E50.91941
G0 F9000 X74.049 Y151.548
G1 F1800 X83.45 Y160.949 E51.36161
G0 F9000 X84.016 Y160.949
G1 F1800 X74.049 Y150.982 E51.83043
G0 F9000 X74.049 Y150.417
G1 F1800 X84.581 Y160.949 E52.32582
G0 F9000 X85.147 Y160.949
G1 F1800 X74.049 Y149.851 E52.84783
G0 F9000 X74.049 Y149.285
G1 F1800 X85.713 Y160.949 E53.39647
G0 F9000 X86.279 Y160.949
G1 F1800 X74.049 Y148.72 E53.97171
G0 F9000 X74.049 Y148.154
G1 F1800 X86.844 Y160.949 E54.57355
G0 F9000 X87.41 Y160.949
G1 F1800 X74.049 Y147.588 E55.20201
G0 F9000 X74.049 Y147.023
G1 F1800 X87.976 Y160.949 E55.85707
G0 F9000 X88.541 Y160.949
G1 F1800 X74.049 Y146.457 E56.53873
G0 F9000 X74.049 Y145.891
G1 F1800 X89.107 Y160.949 E57.24701
G0 F9000 X89.673 Y160.949
G1 F1800 X74.049 Y145.325 E57.98192
G0 F9000 X74.049 Y144.76
G1 F1800 X90.238 Y160.949 E58.7434
G0 F9000 X90.804 Y160.949
G1 F1800 X74.049 Y144.194 E59.5315
G0 F9000 X74.049 Y143.628
G1 F1800 X91.37 Y160.949 E60.34623
G0 F9000 X91.935 Y160.949
G1 F1800 X74.049 Y143.063 E61.18753
G0 F9000 X74.049 Y142.497
G1 F1800 X92.501 Y160.949 E62.05546
G0 F9000 X93.067 Y160.949
G1 F1800 X74.049 Y141.931 E62.95
G0 F9000 X74.049 Y141.366
G1 F1800 X93.632 Y160.949 E63.87113
G0 F9000 X94.198 Y160.949
G1 F1800 X74.049 Y140.8 E64.81887
G0 F9000 X74.049 Y140.234
G1 F1800 X94.764 Y160.949 E65.79325
G0 F9000 X95.33 Y160.949
G1 F1800 X74.049 Y139.669 E66.79421
G0 F9000 X74.049 Y139.103
G1 F1800 X95.895 Y160.949 E67.82178
G0 F9000 X96.461 Y160.949
G1 F1800 X74.049 Y138.537 E68.87598
G0 F9000 X74.049 Y137.972
G1 F1800 X97.027 Y160.949 E69.95677
G0 F9000 X97.592 Y160.949
G1 F1800 X74.049 Y137.406 E71.06416
G0 F9000 X74.049 Y136.84
G1 F1800 X98.158 Y160.949 E72.19817
G0 F9000 X98.724 Y160.949
G1 F1800 X74.049 Y136.275 E73.35878
G0 F9000 X74.049 Y135.709
G1 F1800 X99.289 Y160.949 E74.546
G0 F9000 X99.855 Y160.949
G1 F1800 X74.049 Y135.143 E75.75983
G0 F9000 X74.049 Y134.577
G1 F1800 X100.421 Y160.949 E77.00029
G0 F9000 X100.986 Y160.949
G1 F1800 X74.049 Y134.012 E78.26732
G0 F9000 X74.049 Y133.446
G1 F1800 X101.552 Y160.949 E79.56098
G0 F9000 X102.118 Y160.949
G1 F1800 X74.049 Y132.88 E80.88126
G0 F9000 X74.049 Y132.315
G1 F1800 X102.683 Y160.949 E82.22811
G0 F9000 X103.249 Y160.949
G1 F1800 X74.049 Y131.749 E83.60159
G0 F9000 X74.049 Y131.183
G1 F1800 X103.815 Y160.949 E85.00169
G0 F9000 X104.38 Y160.949
G1 F1800 X74.049 Y130.618 E86.42837
G0 F9000 X74.049 Y130.052
G1 F1800 X104.946 Y160.949 E87.88167
G0 F9000 X105.512 Y160.949
G1 F1800 X74.049 Y129.486 E89.36159
G0 F9000 X74.049 Y128.921
G1 F1800 X106.078 Y160.949 E90.86812
G0 F9000 X106.643 Y160.949
G1 F1800 X74.049 Y128.355 E92.40124
G0 F9000 X74.049 Y127.789
G1 F1800 X107.209 Y160.949 E93.96098
G0 F9000 X107.775 Y160.949
G1 F1800 X74.049 Y127.224 E95.54733
G0 F9000 X74.049 Y126.658
G1 F1800 X108.34 Y160.949 E97.16027
G0 F9000 X108.906 Y160.949
G1 F1800 X74.049 Y126.092 E98.79984
G0 F9000 X74.049 Y125.527
G1 F1800 X109.472 Y160.949 E100.466
G0 F9000 X110.037 Y160.949
G1 F1800 X74.049 Y124.961 E102.15877
G0 F9000 X74.049 Y124.395
G1 F1800 X110.603 Y160.949 E103.87816
G0 F9000 X111.169 Y160.949
G1 F1800 X74.049 Y123.829 E105.62417
G0 F9000 X74.049 Y123.264
G1 F1800 X111.734 Y160.949 E107.39675
G0 F9000 X112.3 Y160.949
G1 F1800 X74.049 Y122.698 E109.19596
G0 F9000 X74.049 Y122.132
G1 F1800 X112.866 Y160.949 E111.0218
G0 F9000 X113.431 Y160.949
G1 F1800 X74.049 Y121.567 E112.87421
G0 F9000 X74.049 Y121.001
G1 F1800 X113.997 Y160.949 E114.75324
G0 F9000 X114.563 Y160.949
G1 F1800 X74.049 Y120.435 E116.65889
G0 F9000 X74.049 Y119.87
G1 F1800 X115.129 Y160.949 E118.59115
G0 F9000 X115.694 Y160.949
G1 F1800 X74.049 Y119.304 E120.55
G0 F9000 X74.049 Y118.738
G1 F1800 X116.26 Y160.949 E122.53547
G0 F9000 X116.826 Y160.949
G1 F1800 X74.049 Y118.173 E124.54755
G0 F9000 X74.049 Y117.607
G1 F1800 X117.391 Y160.949 E126.58622
G0 F9000 X117.957 Y160.949
G1 F1800 X74.049 Y117.041 E128.65152
G0 F9000 X74.049 Y116.476
G1 F1800 X118.523 Y160.949 E130.74342
G0 F9000 X119.088 Y160.949
G1 F1800 X74.049 Y115.91 E132.86192
G0 F9000 X74.049 Y115.344
G1 F1800 X119.654 Y160.949 E135.00704
G0 F9000 X120.22 Y160.949
G1 F1800 X74.049 Y114.778 E137.17878
G0 F9000 X74.049 Y114.213
G1 F1800 X120.785 Y160.949 E139.3771
G0 F9000 X121.351 Y160.949
G1 F1800 X74.049 Y113.647 E141.60204
G0 F9000 X74.049 Y113.081
G1 F1800 X121.917 Y160.949 E143.8536
G0 F9000 X122.482 Y160.949
G1 F1800 X74.049 Y112.516 E146.13174
G0 F9000 X74.049 Y111.95
G1 F1800 X123.048 Y160.949 E148.4365
G0 F9000 X123.614 Y160.949
G1 F1800 X74.049 Y111.384 E150.76789
G0 F9000 X74.049 Y110.819
G1 F1800 X124.179 Y160.949 E153.12585
G0 F9000 X124.745 Y160.949
G1 F1800 X74.049 Y110.253 E155.51043
G0 F9000 X74.049 Y109.687
G1 F1800 X125.311 Y160.949 E157.92164
G0 F9000 X125.877 Y160.949
G1 F1800 X74.049 Y109.122 E160.35945
G0 F9000 X74.049 Y108.556
G1 F1800 X126.442 Y160.949 E162.82385
G0 F9000 X127.008 Y160.949
G1 F1800 X74.049 Y107.99 E165.31488
G0 F9000 X74.049 Y107.425
G1 F1800 X127.574 Y160.949 E167.83251
G0 F9000 X128.139 Y160.949
G1 F1800 X74.049 Y106.859 E170.37674
G0 F9000 X74.049 Y106.293
G1 F1800 X128.705 Y160.949 E172.94759
G0 F9000 X129.271 Y160.949
G1 F1800 X74.049 Y105.728 E175.54504
G0 F9000 X74.049 Y105.162
G1 F1800 X129.836 Y160.949 E178.16909
G0 F9000 X130.402 Y160.949
G1 F1800 X74.049 Y104.596 E180.81976
G0 F9000 X74.049 Y104.03
G1 F1800 X130.968 Y160.949 E183.49706
G0 F9000 X131.533 Y160.949
G1 F1800 X74.049 Y103.465 E186.20093
G0 F9000 X74.049 Y102.899
G1 F1800 X132.099 Y160.949 E188.93142
G0 F9000 X132.665 Y160.949
G1 F1800 X74.049 Y102.333 E191.68854
G0 F9000 X74.049 Y101.768
G1 F1800 X133.23 Y160.949 E194.47223
G0 F9000 X133.796 Y160.949
G1 F1800 X74.049 Y101.202 E197.28255
G0 F9000 X74.049 Y100.636
G1 F1800 X134.362 Y160.949 E200.11949
G0 F9000 X134.927 Y160.949
G1 F1800 X74.049 Y100.071 E202.983
G0 F9000 X74.049 Y99.505
G1 F1800 X135.493 Y160.949 E205.87314
G0 F9000 X136.059 Y160.949
G1 F1800 X74.049 Y98.939 E208.7899
G0 F9000 X74.049 Y98.374
G1 F1800 X136.625 Y160.949 E211.73326
G0 F9000 X137.19 Y160.949
G1 F1800 X74.049 Y97.808 E214.70322
G0 F9000 X74.049 Y97.242
G1 F1800 X137.756 Y160.949 E217.6998
G0 F9000 X138.322 Y160.949
G1 F1800 X74.049 Y96.677 E220.72298
G0 F9000 X74.049 Y96.111
G1 F1800 X138.887 Y160.949 E223.77276
G0 F9000 X139.453 Y160.949
G1 F1800 X74.049 Y95.545 E226.84917
G0 F9000 X74.049 Y94.979
G1 F1800 X140.019 Y160.949 E229.95219
G0 F9000 X140.584 Y160.949
G1 F1800 X74.049 Y94.414 E233.08179
G0 F9000 X74.049 Y93.848
G1 F1800 X141.15 Y160.949 E236.23802
G0 F9000 X141.716 Y160.949
G1 F1800 X74.049 Y93.282 E239.42087
G0 F9000 X74.049 Y92.717
G1 F1800 X142.281 Y160.949 E242.63029
G0 F9000 X142.847 Y160.949
G1 F1800 X74.049 Y92.151 E245.86634
G0 F9000 X74.049 Y91.585
G1 F1800 X143.413 Y160.949 E249.12901
G0 F9000 X143.978 Y160.949
G1 F1800 X74.049 Y91.02 E252.41825
G0 F9000 X74.049 Y90.454
G1 F1800 X144.544 Y160.949 E255.73412
G0 F9000 X145.11 Y160.949
G1 F1800 X74.049 Y89.888 E259.07661
G0 F9000 X74.049 Y89.323
G1 F1800 X145.676 Y160.949 E262.44571
G0 F9000 X146.241 Y160.949
G1 F1800 X74.049 Y88.757 E265.8414
G0 F9000 X74.049 Y88.191
G1 F1800 X146.807 Y160.949 E269.26371
G0 F9000 X147.373 Y160.949
G1 F1800 X74.049 Y87.626 E272.71262
G0 F9000 X74.049 Y87.06
G1 F1800 X147.938 Y160.949 E276.18813
G0 F9000 X148.504 Y160.949
G1 F1800 X74.049 Y86.494 E279.69027
G0 F9000 X74.049 Y85.929
G1 F1800 X149.07 Y160.949 E283.219
G0 F9000 X149.635 Y160.949
G1 F1800 X74.049 Y85.363 E286.77434
G0 F9000 X74.049 Y84.797
G1 F1800 X150.201 Y160.949 E290.35629
G0 F9000 X150.767 Y160.949
G1 F1800 X74.049 Y84.231 E293.96487
G0 F9000 X74.049 Y83.666
G1 F1800 X151.332 Y160.949 E297.60003
G0 F9000 X151.898 Y160.949
G1 F1800 X74.049 Y83.1 E301.26181
G0 F9000 X74.052 Y82.537
G1 F1800 X152.46 Y160.945 E304.94988
G0 F9000 X152.975 Y160.895
G1 F1800 X74.103 Y82.022 E308.6598
G0 F9000 X74.154 Y81.508
G1 F1800 X153.49 Y160.844 E312.39152
G0 F9000 X154.005 Y160.793
G1 F1800 X74.205 Y80.993 E316.14507
G0 F9000 X74.314 Y80.536
G1 F1800 X154.462 Y160.685 E319.91501
G0 F9000 X154.896 Y160.553
G1 F1800 X74.445 Y80.102 E323.69918
G0 F9000 X74.577 Y79.668
G1 F1800 X155.33 Y160.422 E327.49757
G0 F9000 X155.759 Y160.284
G1 F1800 X74.713 Y79.239 E331.30971
G0 F9000 X74.91 Y78.87
G1 F1800 X156.127 Y160.087 E335.1299
G0 F9000 X156.496 Y159.89
G1 F1800 X75.108 Y78.502 E338.95815
G0 F9000 X75.306 Y78.134
G1 F1800 X156.863 Y159.692 E342.79436
G0 F9000 X157.225 Y159.487
G1 F1800 X75.51 Y77.773 E346.63796
G0 F9000 X75.765 Y77.462
G1 F1800 X157.536 Y159.233 E350.48422
G0 F9000 X157.847 Y158.978
G1 F1800 X76.019 Y77.151 E354.33313
G0 F9000 X76.274 Y76.839
