;FLAVOR:Marlin
;TIME:17481
;Filament used: 17.3681m
;Layer height: 0.2
;MINX:72.7
;MINY:61.835
;MINZ:0.2
;MAXX:162.3
;MAXY:172.412
;MAXZ:23
;Generated with Cura_SteamEngine 4.12.0
M140 S50
M105
M190 S50
M104 S200
M105
M109 S200
M82 ;absolute extrusion mode
; Ender 3 Custom Start G-code
G92 E0 ; Reset Extruder
G28 ; Home all axes
M420 S1 Z2 ;Enable ABL using saved Mesh and Fade Height
G1 Z2.0 F3000 ; Move Z Axis up little to prevent scratching of Heat Bed
G1 X0.1 Y20 Z0.3 F5000.0 ; Move to start position
G1 X0.1 Y200.0 Z0.3 F1500.0 E15 ; Draw the first line
G1 X0.4 Y200.0 Z0.3 F5000.0 ; Move to side a little
G1 X0.4 Y20 Z0.3 F1500.0 E30 ; Draw the second line
G92 E0 ; Reset Extruder
G1 Z2.0 F3000 ; Move Z Axis up little to prevent scratching of Heat Bed
G1 X5 Y20 Z0.3 F5000.0 ; Move over to prevent blob squish
G92 E0
G92 E0
G1 F1500 E-6
;LAYER_COUNT:98
;LAYER:0
M107
G0 F9000 X111.5 Y62.7 Z0.2
;TYPE:SUPPORT
G1 F1500 E0
G1 F1800 X123.5 Y62.702 E0.39912
G1 X123.5 Y65.3 E0.48553
G1 X111.5 Y65.298 E0.88465
G1 X111.5 Y62.7 E0.97106
G0 F9000 X111.9 Y63.1
G1 F1800 X123.1 Y63.102 E1.34358
G1 X123.1 Y64.9 E1.40338
G1 X111.9 Y64.898 E1.77589
G1 X111.9 Y63.1 E1.83569
G0 F9000 X112 Y63.181
G1 F1800 X112 Y64.818 E1.89014
G0 F9000 X111.98 Y64
G1 F1800 X123.02 Y64 E2.25733
G0 F9000 X122 Y63.182
G1 F1800 X122 Y64.819 E2.31178
G0 F9000 X120 Y64.819
G1 F1800 X120 Y63.182 E2.36623
G0 F9000 X118 Y63.182
G1 F1800 X118 Y64.819 E2.42067
G0 F9000 X116 Y64.818
G1 F1800 X116 Y63.181 E2.47512
G0 F9000 X114 Y63.181
G1 F1800 X114 Y64.818 E2.52957
G1 F1500 E-3.47043
;MESH:lightpadcontrollerbottom.stl
G0 F9000 X114 Y66.164
G0 X114 Y66.835
G0 X114 Y68.71
G0 X115.155 Y68.673
G0 X125.682 Y68.682
G0 X125.682 Y63.682
G0 X152.442 Y63.671
G0 X154.22 Y63.845
G0 X155.876 Y64.347
G0 X157.403 Y65.165
G0 X158.74 Y66.26
G0 X159.835 Y67.597
G0 X160.653 Y69.124
G0 X161.155 Y70.78
G0 X161.329 Y72.558
G0 X161.329 Y162.442
G0 X161.155 Y164.22
G0 X160.653 Y165.876
G0 X159.835 Y167.403
G0 X158.74 Y168.74
G0 X157.403 Y169.835
G0 X155.876 Y170.653
G0 X154.535 Y171.058
G0 X152.452 Y171.5
;TYPE:WALL-INNER
G1 F1500 E2.52957
G1 F1800 X82.548 Y171.5 E4.85458
G1 X80.746 Y171.323 E4.91481
G1 X79.059 Y170.812 E4.97343
G1 X77.503 Y169.978 E5.03215
G1 X76.139 Y168.861 E5.09079
G1 X75.022 Y167.497 E5.14943
G1 X74.188 Y165.941 E5.20814
G1 X73.677 Y164.254 E5.26677
G1 X73.5 Y162.452 E5.327
G1 X73.5 Y72.548 E8.31721
G1 X73.677 Y70.746 E8.37744
G1 X74.188 Y69.059 E8.43607
G1 X75.022 Y67.503 E8.49478
G1 X76.139 Y66.139 E8.55342
G1 X77.503 Y65.022 E8.61206
G1 X79.059 Y64.188 E8.67078
G1 X80.746 Y63.677 E8.7294
G1 X82.548 Y63.5 E8.78963
G1 X109.5 Y63.5 E9.68605
G1 X109.5 Y68.5 E9.85236
G1 X125.5 Y68.5 E10.38452
G1 X125.5 Y63.5 E10.55082
G1 X152.452 Y63.5 E11.44725
G1 X154.254 Y63.677 E11.50747
G1 X155.941 Y64.188 E11.5661
G1 X157.497 Y65.022 E11.62481
G1 X158.861 Y66.139 E11.68345
G1 X159.978 Y67.503 E11.74209
G1 X160.812 Y69.059 E11.80081
G1 X161.323 Y70.746 E11.85943
G1 X161.5 Y72.548 E11.91966
G1 X161.5 Y162.452 E14.90988
G1 X161.323 Y164.254 E14.9701
G1 X160.812 Y165.941 E15.02873
G1 X159.978 Y167.497 E15.08745
G1 X158.861 Y168.861 E15.14608
G1 X157.497 Y169.978 E15.20472
G1 X155.941 Y170.812 E15.26344
G1 X154.254 Y171.323 E15.32207
G1 X152.452 Y171.5 E15.38229
G0 F9000 X152.471 Y171.9
G1 F1800 X82.529 Y171.9 E17.70857
G1 X80.666 Y171.717 E17.77083
G1 X78.904 Y171.183 E17.83207
G1 X77.281 Y170.314 E17.8933
G1 X75.855 Y169.145 E17.95463
G1 X74.686 Y167.719 E18.01596
G1 X73.817 Y166.096 E18.07719
G1 X73.283 Y164.334 E18.13843
G1 X73.1 Y162.471 E18.20069
G1 X73.1 Y72.529 E21.19217
G1 X73.283 Y70.666 E21.25443
G1 X73.817 Y68.904 E21.31567
G1 X74.686 Y67.281 E21.3769
G1 X75.855 Y65.855 E21.43823
G1 X77.281 Y64.686 E21.49956
G1 X78.904 Y63.817 E21.56079
G1 X80.666 Y63.283 E21.62203
G1 X82.529 Y63.1 E21.68429
G1 X109.9 Y63.1 E22.59465
G1 X109.9 Y68.1 E22.76095
G1 X125.1 Y68.1 E23.26651
G1 X125.1 Y63.1 E23.43281
G1 X152.471 Y63.1 E24.34317
G1 X154.334 Y63.283 E24.40543
G1 X156.096 Y63.817 E24.46667
G1 X157.719 Y64.686 E24.5279
G1 X159.145 Y65.855 E24.58923
G1 X160.314 Y67.281 E24.65056
G1 X161.183 Y68.904 E24.71179
G1 X161.717 Y70.666 E24.77303
G1 X161.9 Y72.529 E24.83529
G1 X161.9 Y162.471 E27.82677
G1 X161.717 Y164.334 E27.88904
G1 X161.183 Y166.096 E27.95027
G1 X160.314 Y167.719 E28.01151
G1 X159.145 Y169.145 E28.07283
G1 X157.719 Y170.314 E28.13416
G1 X156.096 Y171.183 E28.1954
G1 X154.334 Y171.717 E28.25663
G1 X152.471 Y171.9 E28.31889
G0 F9000 X152.49 Y172.3
;TYPE:WALL-OUTER
G1 F1800 X82.51 Y172.3 E30.64644
G1 X80.586 Y172.111 E30.71074
G1 X78.749 Y171.554 E30.77458
G1 X77.059 Y170.65 E30.83833
G1 X75.571 Y169.429 E30.90235
G1 X74.35 Y167.941 E30.96637
G1 X73.446 Y166.251 E31.03012
G1 X72.889 Y164.414 E31.09396
G1 X72.7 Y162.49 E31.15826
G1 X72.7 Y72.51 E34.15101
G1 X72.889 Y70.586 E34.21531
G1 X73.446 Y68.749 E34.27916
G1 X74.35 Y67.059 E34.3429
G1 X75.571 Y65.571 E34.40692
G1 X77.059 Y64.35 E34.47094
G1 X78.749 Y63.446 E34.53469
G1 X80.586 Y62.889 E34.59853
G1 X82.51 Y62.7 E34.66283
G1 X110.3 Y62.7 E35.58713
G1 X110.3 Y67.7 E35.75343
G1 X124.7 Y67.7 E36.23238
G1 X124.7 Y62.7 E36.39868
G1 X152.49 Y62.7 E37.32298
G1 X154.414 Y62.889 E37.38728
G1 X156.251 Y63.446 E37.45113
G1 X157.941 Y64.35 E37.51487
G1 X159.429 Y65.571 E37.57889
G1 X160.65 Y67.059 E37.64291
G1 X161.554 Y68.749 E37.70666
G1 X162.111 Y70.586 E37.77051
G1 X162.3 Y72.51 E37.83481
G1 X162.3 Y162.49 E40.82755
G1 X162.111 Y164.414 E40.89185
G1 X161.554 Y166.251 E40.9557
G1 X160.65 Y167.941 E41.01944
G1 X159.429 Y169.429 E41.08347
G1 X157.941 Y170.65 E41.14749
G1 X156.251 Y171.554 E41.21123
G1 X154.414 Y172.111 E41.27508
G1 X152.49 Y172.3 E41.33938
G0 F9000 X152.469 Y171.861
G0 X152.433 Y171.11
;TYPE:SKIN
G1 F1800 X82.567 Y171.11 E43.66313
G1 X80.821 Y170.939 E43.72148
G1 X79.206 Y170.45 E43.7776
G1 X77.724 Y169.655 E43.83354
G1 X76.416 Y168.584 E43.88977
G1 X75.345 Y167.276 E43.94599
G1 X74.55 Y165.794 E44.00193
G1 X74.061 Y164.179 E44.05805
G1 X73.89 Y162.433 E44.1164
G1 X73.89 Y72.567 E47.10536
G1 X74.061 Y70.821 E47.16371
G1 X74.55 Y69.206 E47.21983
G1 X75.345 Y67.724 E47.27577
G1 X76.416 Y66.416 E47.332
G1 X77.724 Y65.345 E47.38822
G1 X79.206 Y64.55 E47.44416
G1 X80.821 Y64.061 E47.50028
G1 X82.567 Y63.89 E47.55863
G1 X109.11 Y63.89 E48.44146
G1 X109.11 Y68.89 E48.60776
G1 X125.89 Y68.89 E49.16586
G1 X125.89 Y63.89 E49.33216
G1 X152.433 Y63.89 E50.21499
G1 X154.179 Y64.061 E50.27334
G1 X155.794 Y64.55 E50.32946
G1 X157.276 Y65.345 E50.3854
G1 X158.584 Y66.416 E50.44162
G1 X159.655 Y67.724 E50.49785
G1 X160.45 Y69.206 E50.55379
G1 X160.939 Y70.821 E50.60991
G1 X161.11 Y72.567 E50.66826
G1 X161.11 Y162.433 E53.65722
G1 X160.939 Y164.179 E53.71557
G1 X160.45 Y165.794 E53.77169
G1 X159.655 Y167.276 E53.82762
G1 X158.584 Y168.584 E53.88385
G1 X157.276 Y169.655 E53.94008
G1 X155.794 Y170.45 E53.99602
G1 X154.179 Y170.939 E54.05214
G1 X152.433 Y171.11 E54.11049
G1 F1500 E48.11049
G0 F9000 X152.433 Y171.39
G0 X82.558 Y171.329
G0 X80.78 Y171.155
G0 X79.29 Y170.704
G0 X77.746 Y169.983
G1 F1500 E54.11049
G0 F9000 X77.954 Y169.596
G1 F1800 X75.402 Y167.043 E54.23055
G0 F9000 X75.014 Y167.25
G0 X74.36 Y166.03
G0 X74.748 Y165.823
G1 F1800 X79.175 Y170.25 E54.43878
G0 F9000 X80.018 Y170.527
G1 F1800 X74.47 Y164.98 E54.69972
G0 F9000 X74.224 Y164.168
G1 F1800 X80.83 Y170.774 E55.01045
G0 F9000 X81.461 Y170.839
G1 F1800 X74.158 Y163.536 E55.35396
G0 F9000 X74.097 Y162.909
G1 F1800 X82.088 Y170.901 E55.72985
G0 F9000 X82.702 Y170.949
G1 F1800 X74.048 Y162.295 E56.13691
G0 F9000 X74.048 Y161.73
G1 F1800 X83.268 Y170.949 E56.57057
G0 F9000 X83.833 Y170.949
G1 F1800 X74.048 Y161.164 E57.03082
G0 F9000 X74.048 Y160.598
G1 F1800 X84.399 Y170.949 E57.5177
G0 F9000 X84.965 Y170.949
G1 F1800 X74.048 Y160.033 E58.03118
G0 F9000 X74.048 Y159.467
G1 F1800 X85.53 Y170.949 E58.57126
G0 F9000 X86.096 Y170.949
G1 F1800 X74.048 Y158.901 E59.13796
G0 F9000 X74.048 Y158.336
G1 F1800 X86.662 Y170.949 E59.73126
G0 F9000 X87.227 Y170.949
G1 F1800 X74.048 Y157.77 E60.35116
G0 F9000 X74.048 Y157.204
G1 F1800 X87.793 Y170.949 E60.99768
G0 F9000 X88.359 Y170.949
G1 F1800 X74.048 Y156.639 E61.67081
G0 F9000 X74.048 Y156.073
G1 F1800 X88.925 Y170.949 E62.37055
G0 F9000 X89.49 Y170.949
G1 F1800 X74.048 Y155.507 E63.09689
G0 F9000 X74.048 Y154.941
G1 F1800 X90.056 Y170.949 E63.84986
G0 F9000 X90.622 Y170.949
G1 F1800 X74.048 Y154.376 E64.62943
G0 F9000 X74.048 Y153.81
G1 F1800 X91.187 Y170.949 E65.43559
G0 F9000 X91.753 Y170.949
G1 F1800 X74.048 Y153.244 E66.26838
G0 F9000 X74.048 Y152.679
G1 F1800 X92.319 Y170.949 E67.12777
G0 F9000 X92.884 Y170.949
G1 F1800 X74.048 Y152.113 E68.01376
G0 F9000 X74.048 Y151.547
G1 F1800 X93.45 Y170.949 E68.92637
G0 F9000 X94.016 Y170.949
G1 F1800 X74.048 Y150.982 E69.86558
G0 F9000 X74.048 Y150.416
G1 F1800 X94.581 Y170.949 E70.83139
G0 F9000 X95.147 Y170.949
G1 F1800 X74.048 Y149.85 E71.82382
G0 F9000 X74.048 Y149.285
G1 F1800 X95.713 Y170.949 E72.84285
G0 F9000 X96.278 Y170.949
G1 F1800 X74.048 Y148.719 E73.88848
G0 F9000 X74.048 Y148.153
G1 F1800 X96.844 Y170.949 E74.96074
G0 F9000 X97.41 Y170.949
G1 F1800 X74.048 Y147.588 E76.05959
G0 F9000 X74.048 Y147.022
G1 F1800 X97.976 Y170.949 E77.18507
G0 F9000 X98.541 Y170.949
G1 F1800 X74.048 Y146.456 E78.33714
G0 F9000 X74.048 Y145.89
G1 F1800 X99.107 Y170.949 E79.51584
G0 F9000 X99.673 Y170.949
G1 F1800 X74.048 Y145.325 E80.72114
G0 F9000 X74.048 Y144.759
G1 F1800 X100.238 Y170.949 E81.95304
G0 F9000 X100.804 Y170.949
G1 F1800 X74.048 Y144.193 E83.21156
G0 F9000 X74.048 Y143.628
G1 F1800 X101.37 Y170.949 E84.49668
G0 F9000 X101.935 Y170.949
G1 F1800 X74.048 Y143.062 E85.8084
G0 F9000 X74.048 Y142.496
G1 F1800 X102.501 Y170.949 E87.14674
G0 F9000 X103.067 Y170.949
G1 F1800 X74.048 Y141.931 E88.51168
G0 F9000 X74.048 Y141.365
G1 F1800 X103.632 Y170.949 E89.90322
G0 F9000 X104.198 Y170.949
G1 F1800 X74.048 Y140.799 E91.32138
G0 F9000 X74.048 Y140.234
G1 F1800 X104.764 Y170.949 E92.76615
G0 F9000 X105.329 Y170.949
G1 F1800 X74.048 Y139.668 E94.23751
G0 F9000 X74.048 Y139.102
G1 F1800 X105.895 Y170.949 E95.73549
G0 F9000 X106.461 Y170.949
G1 F1800 X74.048 Y138.537 E97.26008
G0 F9000 X74.048 Y137.971
G1 F1800 X107.026 Y170.949 E98.81126
G0 F9000 X107.592 Y170.949
G1 F1800 X74.048 Y137.405 E100.38907
G0 F9000 X74.048 Y136.84
G1 F1800 X108.158 Y170.949 E101.99348
G0 F9000 X108.724 Y170.949
G1 F1800 X74.048 Y136.274 E103.62451
G0 F9000 X74.048 Y135.708
G1 F1800 X109.289 Y170.949 E105.28213
G0 F9000 X109.855 Y170.949
G1 F1800 X74.048 Y135.142 E106.96639
G0 F9000 X74.048 Y134.577
G1 F1800 X110.421 Y170.949 E108.67724
G0 F9000 X110.986 Y170.949
G1 F1800 X74.048 Y134.011 E110.41469
G0 F9000 X74.048 Y133.445
G1 F1800 X111.552 Y170.949 E112.17876
G0 F9000 X112.118 Y170.949
G1 F1800 X74.048 Y132.88 E113.96943
G0 F9000 X74.048 Y132.314
G1 F1800 X112.683 Y170.949 E115.7867
G0 F9000 X113.249 Y170.949
G1 F1800 X74.048 Y131.748 E117.6306
G0 F9000 X74.048 Y131.183
G1 F1800 X113.815 Y170.949 E119.50109
G0 F9000 X114.38 Y170.949
G1 F1800 X74.048 Y130.617 E121.39819
G0 F9000 X74.048 Y130.051
G1 F1800 X114.946 Y170.949 E123.3219
G0 F9000 X115.512 Y170.949
G1 F1800 X74.048 Y129.486 E125.27222
G0 F9000 X74.048 Y128.92
G1 F1800 X116.077 Y170.949 E127.24913
G0 F9000 X116.643 Y170.949
G1 F1800 X74.048 Y128.354 E129.25267
G0 F9000 X74.048 Y127.789
G1 F1800 X117.209 Y170.949 E131.28281
G0 F9000 X117.774 Y170.949
G1 F1800 X74.048 Y127.223 E133.33955
G0 F9000 X74.048 Y126.657
G1 F1800 X118.34 Y170.949 E135.42291
G0 F9000 X118.906 Y170.949
G1 F1800 X74.048 Y126.091 E137.53289
G0 F9000 X74.048 Y125.526
G1 F1800 X119.472 Y170.949 E139.66947
G0 F9000 X120.037 Y170.949
G1 F1800 X74.048 Y124.96 E141.83265
G0 F9000 X74.048 Y124.394
G1 F1800 X120.603 Y170.949 E144.02246
G0 F9000 X121.169 Y170.949
G1 F1800 X74.048 Y123.829 E146.23886
G0 F9000 X74.048 Y123.263
G1 F1800 X121.734 Y170.949 E148.48187
G0 F9000 X122.3 Y170.949
G1 F1800 X74.048 Y122.697 E150.75149
G0 F9000 X74.048 Y122.132
G1 F1800 X122.866 Y170.949 E153.04772
G0 F9000 X123.431 Y170.949
G1 F1800 X74.048 Y121.566 E155.37054
G0 F9000 X74.048 Y121
G1 F1800 X123.997 Y170.949 E157.71999
G0 F9000 X124.563 Y170.949
G1 F1800 X74.048 Y120.435 E160.09604
G0 F9000 X74.048 Y119.869
G1 F1800 X125.128 Y170.949 E162.49868
G0 F9000 X125.694 Y170.949
G1 F1800 X74.048 Y119.303 E164.92795
G0 F9000 X74.048 Y118.738
G1 F1800 X126.26 Y170.949 E167.38382
G0 F9000 X126.825 Y170.949
G1 F1800 X74.048 Y118.172 E169.86629
G0 F9000 X74.048 Y117.606
G1 F1800 X127.391 Y170.949 E172.37538
G0 F9000 X127.957 Y170.949
G1 F1800 X74.048 Y117.041 E174.91107
G0 F9000 X74.048 Y116.475
G1 F1800 X128.523 Y170.949 E177.47339
G0 F9000 X129.088 Y170.949
G1 F1800 X74.048 Y115.909 E180.0623
G0 F9000 X74.048 Y115.343
G1 F1800 X129.654 Y170.949 E182.67783
G0 F9000 X130.22 Y170.949
G1 F1800 X74.048 Y114.778 E185.31997
G0 F9000 X74.048 Y114.212
G1 F1800 X130.785 Y170.949 E187.9887
G0 F9000 X131.351 Y170.949
G1 F1800 X74.048 Y113.646 E190.68406
G0 F9000 X74.048 Y113.081
G1 F1800 X131.917 Y170.949 E193.40602
G0 F9000 X132.482 Y170.949
G1 F1800 X74.048 Y112.515 E196.15457
G0 F9000 X74.048 Y111.949
G1 F1800 X133.048 Y170.949 E198.92975
G0 F9000 X133.614 Y170.949
G1 F1800 X74.048 Y111.384 E201.73153
G0 F9000 X74.048 Y110.818
G1 F1800 X134.179 Y170.949 E204.55991
G0 F9000 X134.745 Y170.949
G1 F1800 X74.048 Y110.252 E207.41491
G0 F9000 X74.048 Y109.687
G1 F1800 X135.311 Y170.949 E210.29651
G0 F9000 X135.876 Y170.949
G1 F1800 X74.048 Y109.121 E213.20471
G0 F9000 X74.048 Y108.555
G1 F1800 X136.442 Y170.949 E216.13953
G0 F9000 X137.008 Y170.949
G1 F1800 X74.048 Y107.99 E219.10095
G0 F9000 X74.048 Y107.424
G1 F1800 X137.573 Y170.949 E222.08898
G0 F9000 X138.139 Y170.949
G1 F1800 X74.048 Y106.858 E225.10362
G0 F9000 X74.048 Y106.292
G1 F1800 X138.705 Y170.949 E228.14489
G0 F9000 X139.271 Y170.949
G1 F1800 X74.048 Y105.727 E231.21275
G0 F9000 X74.048 Y105.161
G1 F1800 X139.836 Y170.949 E234.30722
G0 F9000 X140.402 Y170.949
G1 F1800 X74.048 Y104.595 E237.42831
G0 F9000 X74.048 Y104.03
G1 F1800 X140.968 Y170.949 E240.576
G0 F9000 X141.533 Y170.949
G1 F1800 X74.048 Y103.464 E243.75028
G0 F9000 X74.048 Y102.898
G1 F1800 X142.099 Y170.949 E246.95119
G0 F9000 X142.665 Y170.949
G1 F1800 X74.048 Y102.333 E250.1787
G0 F9000 X74.048 Y101.767
G1 F1800 X143.23 Y170.949 E253.43281
G0 F9000 X143.796 Y170.949
G1 F1800 X74.048 Y101.201 E256.71354
G0 F9000 X74.048 Y100.636
G1 F1800 X144.362 Y170.949 E260.02088
G0 F9000 X144.927 Y170.949
G1 F1800 X74.048 Y100.07 E263.35481
G0 F9000 X74.048 Y99.504
G1 F1800 X145.493 Y170.949 E266.71536
G0 F9000 X146.059 Y170.949
G1 F1800 X74.048 Y98.939 E270.10251
G0 F9000 X74.048 Y98.373
G1 F1800 X146.624 Y170.949 E273.51627
G0 F9000 X147.19 Y170.949
G1 F1800 X74.048 Y97.807 E276.95664
G0 F9000 X74.048 Y97.242
G1 F1800 X147.756 Y170.949 E280.42362
G0 F9000 X148.322 Y170.949
G1 F1800 X74.048 Y96.676 E283.91721
G0 F9000 X74.048 Y96.11
G1 F1800 X148.887 Y170.949 E287.43741
G0 F9000 X149.453 Y170.949
G1 F1800 X74.048 Y95.544 E290.98423
G0 F9000 X74.048 Y94.979
G1 F1800 X150.019 Y170.949 E294.55765
G0 F9000 X150.584 Y170.949
G1 F1800 X74.048 Y94.413 E298.15767
G0 F9000 X74.048 Y93.847
G1 F1800 X151.15 Y170.949 E301.78431
G0 F9000 X151.716 Y170.949
G1 F1800 X74.048 Y93.282 E305.43755
G0 F9000 X74.048 Y92.716
G1 F1800 X152.281 Y170.949 E309.11739
G0 F9000 X152.809 Y170.911
G1 F1800 X74.048 Y92.15 E312.82207
G0 F9000 X74.048 Y91.585
G1 F1800 X153.324 Y170.861 E316.55097
G0 F9000 X153.839 Y170.81
G1 F1800 X74.048 Y91.019 E320.30409
G0 F9000 X74.048 Y90.453
G1 F1800 X154.322 Y170.727 E324.07994
G0 F9000 X154.756 Y170.595
G1 F1800 X74.048 Y89.888 E327.87617
G0 F9000 X74.048 Y89.322
G1 F1800 X155.19 Y170.464 E331.69284
G0 F9000 X155.625 Y170.332
G1 F1800 X74.048 Y88.756 E335.52995
G0 F9000 X74.048 Y88.191
G1 F1800 X156.008 Y170.151 E339.3851
G0 F9000 X156.377 Y169.953
G1 F1800 X74.048 Y87.625 E343.25758
G0 F9000 X74.048 Y87.059
G1 F1800 X156.745 Y169.755 E347.14737
G0 F9000 X157.113 Y169.558
G1 F1800 X74.048 Y86.494 E351.05447
G0 F9000 X74.048 Y85.928
G1 F1800 X157.435 Y169.315 E354.97673
