;FLAVOR:Marlin
;TIME:1650
;Filament used: 1.14283m
;Layer height: 0.2
;MINX:92.2
;MINY:92.2
;MINZ:0.2
;MAXX:141.8
;MAXY:144.8
;MAXZ:5
;Generated with Cura_SteamEngine 4.12.0
M140 S50
M105
M190 S50
M104 S200
M105
M109 S200
M82 ;absolute extrusion mode
; Ender 3 Custom Start G-code
G92 E0 ; Reset Extruder
G28 ; Home all axes
M420 S1 Z2 ;Enable ABL using saved Mesh and Fade Height
G1 Z2.0 F3000 ; Move Z Axis up little to prevent scratching of Heat Bed
G1 X0.1 Y20 Z0.3 F5000.0 ; Move to start position
G1 X0.1 Y200.0 Z0.3 F1500.0 E15 ; Draw the first line
G1 X0.4 Y200.0 Z0.3 F5000.0 ; Move to side a little
G1 X0.4 Y20 Z0.3 F1500.0 E30 ; Draw the second line
G92 E0 ; Reset Extruder
G1 Z2.0 F3000 ; Move Z Axis up little to prevent scratching of Heat Bed
G1 X5 Y20 Z0.3 F5000.0 ; Move over to prevent blob squish
G92 E0
G92 E0
G1 F1500 E-6
;LAYER_COUNT:22
;LAYER:0
M107
G0 F9000 X105.58 Y95.039 Z0.2
;TYPE:SKIRT
G1 F1500 E0
G1 F1800 X105.985 Y94.602 E0.01982
G1 X106.102 Y94.485 E0.02532
G1 X106.688 Y93.955 E0.0516
G1 X107.324 Y93.488 E0.07784
G1 X108.004 Y93.087 E0.1041
G1 X108.722 Y92.757 E0.13038
G1 X109.469 Y92.502 E0.15664
G1 X110.238 Y92.323 E0.1829
G1 X111.022 Y92.223 E0.20918
G1 X111.617 Y92.2 E0.22899
G1 X123.383 Y92.2 E0.62033
G1 X124.172 Y92.24 E0.6466
G1 X124.952 Y92.359 E0.67285
G1 X125.717 Y92.557 E0.69913
G1 X126.457 Y92.831 E0.72537
G1 X127.166 Y93.179 E0.75164
G1 X127.837 Y93.597 E0.77794
G1 X128.461 Y94.08 E0.80418
G1 X128.898 Y94.485 E0.824
G1 X129.015 Y94.602 E0.8295
G1 X129.545 Y95.188 E0.85578
G1 X130.012 Y95.824 E0.88202
G1 X130.413 Y96.504 E0.90828
G1 X130.743 Y97.222 E0.93456
G1 X130.998 Y97.969 E0.96082
G1 X131.177 Y98.738 E0.98708
G1 X131.277 Y99.522 E1.01336
G1 X131.3 Y100.117 E1.03317
G1 X131.3 Y103.7 E1.15234
G1 X133.883 Y103.7 E1.23825
G1 X134.672 Y103.74 E1.26453
G1 X135.452 Y103.859 E1.29077
G1 X136.217 Y104.057 E1.31705
G1 X136.957 Y104.331 E1.3433
G1 X137.666 Y104.679 E1.36957
G1 X138.337 Y105.097 E1.39586
G1 X138.961 Y105.58 E1.42211
G1 X139.398 Y105.985 E1.44192
G1 X139.515 Y106.102 E1.44743
G1 X140.045 Y106.688 E1.47371
G1 X140.512 Y107.324 E1.49995
G1 X140.913 Y108.004 E1.52621
G1 X141.243 Y108.722 E1.55249
G1 X141.498 Y109.469 E1.57874
G1 X141.677 Y110.238 E1.605
G1 X141.777 Y111.022 E1.63129
G1 X141.8 Y111.617 E1.65109
G1 X141.8 Y123.383 E2.04243
G1 X141.76 Y124.172 E2.06871
G1 X141.641 Y124.952 E2.09495
G1 X141.443 Y125.717 E2.12123
G1 X141.169 Y126.457 E2.14748
G1 X140.821 Y127.166 E2.17375
G1 X140.403 Y127.837 E2.20004
G1 X139.92 Y128.461 E2.22629
G1 X139.515 Y128.898 E2.2461
G1 X139.398 Y129.015 E2.25161
G1 X138.812 Y129.545 E2.27789
G1 X138.176 Y130.012 E2.30413
G1 X137.496 Y130.413 E2.33039
G1 X136.778 Y130.743 E2.35667
G1 X136.031 Y130.998 E2.38292
G1 X135.262 Y131.177 E2.40918
G1 X134.478 Y131.277 E2.43547
G1 X133.883 Y131.3 E2.45528
G1 X131.3 Y131.3 E2.54119
G1 X131.3 Y134.883 E2.66036
G1 X131.26 Y135.672 E2.68663
G1 X131.141 Y136.452 E2.71288
G1 X130.943 Y137.217 E2.73916
G1 X130.669 Y137.957 E2.7654
G1 X130.321 Y138.666 E2.79167
G1 X129.903 Y139.337 E2.81797
G1 X129.42 Y139.961 E2.84421
G1 X129.015 Y140.398 E2.86403
G1 X128.898 Y140.515 E2.86953
G1 X128.312 Y141.045 E2.89581
G1 X127.676 Y141.512 E2.92206
G1 X126.996 Y141.913 E2.94831
G1 X126.278 Y142.243 E2.97459
G1 X125.531 Y142.498 E3.00085
G1 X124.762 Y142.677 E3.02711
G1 X123.978 Y142.777 E3.0534
G1 X123.383 Y142.8 E3.0732
G1 X115.083 Y142.8 E3.34926
G1 X114.812 Y143.045 E3.36141
G1 X114.176 Y143.512 E3.38765
G1 X113.496 Y143.913 E3.41391
G1 X112.778 Y144.243 E3.44019
G1 X112.031 Y144.498 E3.46645
G1 X111.262 Y144.677 E3.49271
G1 X110.478 Y144.777 E3.51899
G1 X109.883 Y144.8 E3.5388
G1 X100.117 Y144.8 E3.86362
G1 X99.328 Y144.76 E3.88989
G1 X98.548 Y144.641 E3.91614
G1 X97.783 Y144.443 E3.94242
G1 X97.043 Y144.169 E3.96866
G1 X96.334 Y143.821 E3.99493
G1 X95.663 Y143.403 E4.02123
G1 X95.039 Y142.92 E4.04747
G1 X94.602 Y142.515 E4.06729
G1 X94.485 Y142.398 E4.07279
G1 X93.955 Y141.812 E4.09907
G1 X93.488 Y141.176 E4.12532
G1 X93.087 Y140.496 E4.15157
G1 X92.757 Y139.778 E4.17785
G1 X92.502 Y139.031 E4.20411
G1 X92.323 Y138.262 E4.23037
G1 X92.223 Y137.478 E4.25666
G1 X92.2 Y136.883 E4.27646
G1 X92.2 Y125.117 E4.6678
G1 X92.24 Y124.328 E4.69407
G1 X92.359 Y123.548 E4.72032
G1 X92.557 Y122.783 E4.7466
G1 X92.831 Y122.043 E4.77285
G1 X93.179 Y121.334 E4.79911
G1 X93.2 Y121.3 E4.80044
G1 X93.2 Y111.617 E5.1225
G1 X93.24 Y110.828 E5.14878
G1 X93.359 Y110.048 E5.17502
G1 X93.557 Y109.283 E5.2013
G1 X93.831 Y108.543 E5.22755
G1 X94.179 Y107.834 E5.25382
G1 X94.597 Y107.163 E5.28011
G1 X95.08 Y106.539 E5.30636
G1 X95.485 Y106.102 E5.32617
G1 X95.602 Y105.985 E5.33168
G1 X96.188 Y105.455 E5.35796
G1 X96.824 Y104.988 E5.3842
G1 X97.504 Y104.587 E5.41046
G1 X98.222 Y104.257 E5.43674
G1 X98.969 Y104.002 E5.46299
G1 X99.738 Y103.823 E5.48925
G1 X100.522 Y103.723 E5.51554
G1 X101.117 Y103.7 E5.53534
G1 X103.7 Y103.7 E5.62126
G1 X103.7 Y100.117 E5.74043
G1 X103.74 Y99.328 E5.7667
G1 X103.859 Y98.548 E5.79295
G1 X104.057 Y97.783 E5.81923
G1 X104.331 Y97.043 E5.84547
G1 X104.679 Y96.334 E5.87174
G1 X105.097 Y95.663 E5.89804
G1 X105.58 Y95.039 E5.92428
G0 F9000 X105.975 Y95.194
G1 F1800 X106.267 Y94.884 E5.93845
G1 X106.384 Y94.767 E5.94395
G1 X106.956 Y94.253 E5.96953
G1 X107.578 Y93.8 E5.99512
G1 X108.243 Y93.414 E6.02069
G1 X108.945 Y93.099 E6.04628
G1 X109.676 Y92.859 E6.07187
G1 X110.427 Y92.696 E6.09743
G1 X111.192 Y92.612 E6.12303
G1 X111.617 Y92.6 E6.13717
G1 X123.383 Y92.6 E6.52851
G1 X124.151 Y92.64 E6.55409
G1 X124.911 Y92.759 E6.57968
G1 X125.654 Y92.957 E6.60525
G1 X126.373 Y93.231 E6.63084
G1 X127.059 Y93.578 E6.65641
G1 X127.706 Y93.994 E6.682
G1 X128.306 Y94.475 E6.70757
G1 X128.616 Y94.767 E6.72174
G1 X128.733 Y94.884 E6.72724
G1 X129.247 Y95.456 E6.75282
G1 X129.7 Y96.078 E6.77841
G1 X130.086 Y96.743 E6.80398
G1 X130.401 Y97.445 E6.82958
G1 X130.641 Y98.176 E6.85517
G1 X130.804 Y98.927 E6.88073
G1 X130.888 Y99.692 E6.90632
G1 X130.9 Y100.117 E6.92046
G1 X130.9 Y104.1 E7.05294
G1 X133.883 Y104.1 E7.15215
G1 X134.651 Y104.14 E7.17773
G1 X135.411 Y104.259 E7.20332
G1 X136.154 Y104.457 E7.22889
G1 X136.873 Y104.731 E7.25448
G1 X137.559 Y105.078 E7.28005
G1 X138.206 Y105.494 E7.30564
G1 X138.806 Y105.975 E7.33121
G1 X139.116 Y106.267 E7.34538
G1 X139.233 Y106.384 E7.35088
G1 X139.747 Y106.956 E7.37646
G1 X140.2 Y107.578 E7.40205
G1 X140.586 Y108.243 E7.42763
G1 X140.901 Y108.945 E7.45322
G1 X141.141 Y109.676 E7.47881
G1 X141.304 Y110.427 E7.50437
G1 X141.388 Y111.192 E7.52996
G1 X141.4 Y111.617 E7.54411
G1 X141.4 Y123.383 E7.93544
G1 X141.36 Y124.151 E7.96102
G1 X141.241 Y124.911 E7.98661
G1 X141.043 Y125.654 E8.01218
G1 X140.769 Y126.373 E8.03778
G1 X140.422 Y127.059 E8.06334
G1 X140.006 Y127.706 E8.08893
G1 X139.525 Y128.306 E8.11451
G1 X139.233 Y128.616 E8.12867
G1 X139.116 Y128.733 E8.13417
G1 X138.544 Y129.247 E8.15975
G1 X137.922 Y129.7 E8.18534
G1 X137.257 Y130.086 E8.21092
G1 X136.555 Y130.401 E8.23651
G1 X135.824 Y130.641 E8.2621
G1 X135.073 Y130.804 E8.28766
G1 X134.308 Y130.888 E8.31326
G1 X133.883 Y130.9 E8.3274
G1 X130.9 Y130.9 E8.42661
G1 X130.9 Y134.883 E8.55909
G1 X130.86 Y135.651 E8.58467
G1 X130.741 Y136.411 E8.61025
G1 X130.543 Y137.154 E8.63583
G1 X130.269 Y137.873 E8.66142
G1 X129.922 Y138.559 E8.68699
G1 X129.506 Y139.206 E8.71257
G1 X129.025 Y139.806 E8.73815
G1 X128.733 Y140.116 E8.75231
G1 X128.616 Y140.233 E8.75782
G1 X128.044 Y140.747 E8.78339
G1 X127.422 Y141.2 E8.80899
G1 X126.757 Y141.586 E8.83456
G1 X126.055 Y141.901 E8.86015
G1 X125.324 Y142.141 E8.88574
G1 X124.573 Y142.304 E8.9113
G1 X123.808 Y142.388 E8.9369
G1 X123.383 Y142.4 E8.95104
G1 X114.93 Y142.4 E9.23219
G1 X114.544 Y142.747 E9.24945
G1 X113.922 Y143.2 E9.27504
G1 X113.257 Y143.586 E9.30062
G1 X112.555 Y143.901 E9.32621
G1 X111.824 Y144.141 E9.3518
G1 X111.073 Y144.304 E9.37736
G1 X110.308 Y144.388 E9.40296
G1 X109.883 Y144.4 E9.4171
G1 X100.117 Y144.4 E9.74192
G1 X99.349 Y144.36 E9.76749
G1 X98.589 Y144.241 E9.79308
G1 X97.846 Y144.043 E9.81865
G1 X97.127 Y143.769 E9.84425
G1 X96.441 Y143.422 E9.86982
G1 X95.794 Y143.006 E9.8954
G1 X95.194 Y142.525 E9.92098
G1 X94.884 Y142.233 E9.93514
G1 X94.767 Y142.116 E9.94064
G1 X94.253 Y141.544 E9.96622
G1 X93.8 Y140.922 E9.99181
G1 X93.414 Y140.257 E10.01739
G1 X93.099 Y139.555 E10.04298
G1 X92.859 Y138.824 E10.06857
G1 X92.696 Y138.073 E10.09413
G1 X92.612 Y137.308 E10.11973
G1 X92.6 Y136.883 E10.13387
G1 X92.6 Y125.117 E10.52521
G1 X92.64 Y124.349 E10.55078
G1 X92.759 Y123.589 E10.57637
G1 X92.957 Y122.846 E10.60195
G1 X93.231 Y122.127 E10.62754
G1 X93.578 Y121.441 E10.65311
G1 X93.6 Y121.407 E10.65445
G1 X93.6 Y111.617 E10.98007
G1 X93.64 Y110.849 E11.00565
G1 X93.759 Y110.089 E11.03123
G1 X93.957 Y109.346 E11.05681
G1 X94.231 Y108.627 E11.0824
G1 X94.578 Y107.941 E11.10797
G1 X94.994 Y107.294 E11.13355
G1 X95.475 Y106.694 E11.15913
G1 X95.767 Y106.384 E11.17329
G1 X95.884 Y106.267 E11.1788
G1 X96.456 Y105.753 E11.20438
G1 X97.078 Y105.3 E11.22997
G1 X97.743 Y104.914 E11.25554
G1 X98.445 Y104.599 E11.28113
G1 X99.176 Y104.359 E11.30672
G1 X99.927 Y104.196 E11.33228
G1 X100.692 Y104.112 E11.35788
G1 X101.117 Y104.1 E11.37202
G1 X104.1 Y104.1 E11.47124
G1 X104.1 Y100.117 E11.60371
G1 X104.14 Y99.349 E11.62929
G1 X104.259 Y98.589 E11.65488
G1 X104.457 Y97.846 E11.68045
G1 X104.731 Y97.127 E11.70604
G1 X105.078 Y96.441 E11.73161
G1 X105.494 Y95.794 E11.7572
G1 X105.975 Y95.194 E11.78277
G0 F9000 X105.892 Y95.928
G1 F1800 X106.55 Y95.167 E11.81623
G1 X106.667 Y95.05 E11.82174
G1 X107.224 Y94.55 E11.84663
G1 X107.83 Y94.113 E11.87148
G1 X108.48 Y93.742 E11.89637
G1 X109.166 Y93.443 E11.92126
G1 X109.88 Y93.219 E11.94615
G1 X110.613 Y93.072 E11.97102
G1 X111.617 Y93 E12.0045
G1 X123.383 Y93 E12.39584
G1 X124.13 Y93.04 E12.42072
G1 X124.868 Y93.159 E12.44558
G1 X125.59 Y93.357 E12.47048
G1 X126.286 Y93.63 E12.49535
G1 X126.949 Y93.977 E12.52023
G1 X127.572 Y94.392 E12.54513
G1 X128.333 Y95.05 E12.57859
G1 X128.45 Y95.167 E12.5841
G1 X128.95 Y95.724 E12.60899
G1 X129.387 Y96.33 E12.63384
G1 X129.758 Y96.98 E12.65873
G1 X130.057 Y97.666 E12.68362
G1 X130.281 Y98.38 E12.70851
G1 X130.428 Y99.113 E12.73338
G1 X130.5 Y100.117 E12.76686
G1 X130.5 Y104.5 E12.91264
G1 X133.883 Y104.5 E13.02515
G1 X134.63 Y104.54 E13.05004
G1 X135.368 Y104.659 E13.0749
G1 X136.09 Y104.857 E13.0998
G1 X136.786 Y105.13 E13.12466
G1 X137.449 Y105.477 E13.14955
G1 X138.072 Y105.892 E13.17445
G1 X138.833 Y106.55 E13.20791
G1 X138.95 Y106.667 E13.21342
G1 X139.45 Y107.224 E13.23831
G1 X139.887 Y107.83 E13.26316
G1 X140.258 Y108.48 E13.28805
G1 X140.557 Y109.166 E13.31294
G1 X140.781 Y109.88 E13.33783
G1 X140.928 Y110.613 E13.3627
G1 X141 Y111.617 E13.39618
G1 X141 Y123.383 E13.78751
G1 X140.96 Y124.13 E13.8124
G1 X140.841 Y124.868 E13.83726
G1 X140.643 Y125.59 E13.86216
G1 X140.37 Y126.286 E13.88702
G1 X140.023 Y126.949 E13.91191
G1 X139.608 Y127.572 E13.93681
G1 X138.95 Y128.333 E13.97027
G1 X138.833 Y128.45 E13.97578
G1 X138.276 Y128.95 E14.00067
G1 X137.67 Y129.387 E14.02552
G1 X137.02 Y129.758 E14.05041
G1 X136.334 Y130.057 E14.0753
G1 X135.62 Y130.281 E14.10019
G1 X134.887 Y130.428 E14.12506
G1 X133.883 Y130.5 E14.15854
G1 X130.5 Y130.5 E14.27105
G1 X130.5 Y134.883 E14.41683
G1 X130.46 Y135.63 E14.44171
G1 X130.341 Y136.368 E14.46658
G1 X130.143 Y137.09 E14.49148
G1 X129.87 Y137.786 E14.51634
G1 X129.523 Y138.449 E14.54123
G1 X129.108 Y139.072 E14.56613
G1 X128.45 Y139.833 E14.59959
G1 X128.333 Y139.95 E14.60509
G1 X127.776 Y140.45 E14.62999
G1 X127.17 Y140.887 E14.65484
G1 X126.52 Y141.258 E14.67973
G1 X125.834 Y141.557 E14.70462
G1 X125.12 Y141.781 E14.72951
G1 X124.387 Y141.928 E14.75438
G1 X123.383 Y142 E14.78785
G1 X114.777 Y142 E15.07409
G1 X114.276 Y142.45 E15.09649
G1 X113.67 Y142.887 E15.12134
G1 X113.02 Y143.258 E15.14623
G1 X112.334 Y143.557 E15.17112
G1 X111.62 Y143.781 E15.19601
G1 X110.887 Y143.928 E15.22088
G1 X109.883 Y144 E15.25435
G1 X100.117 Y144 E15.57917
G1 X99.37 Y143.96 E15.60405
G1 X98.632 Y143.841 E15.62892
G1 X97.91 Y143.643 E15.65382
G1 X97.214 Y143.37 E15.67868
G1 X96.551 Y143.023 E15.70357
G1 X95.928 Y142.608 E15.72847
G1 X95.167 Y141.95 E15.76193
G1 X95.05 Y141.833 E15.76743
G1 X94.55 Y141.276 E15.79233
G1 X94.113 Y140.67 E15.81718
G1 X93.742 Y140.02 E15.84207
G1 X93.443 Y139.334 E15.86696
G1 X93.219 Y138.62 E15.89185
G1 X93.072 Y137.887 E15.91672
G1 X93 Y136.883 E15.95019
G1 X93 Y125.117 E16.34153
G1 X93.04 Y124.37 E16.36641
G1 X93.159 Y123.632 E16.39128
G1 X93.357 Y122.91 E16.41618
G1 X93.63 Y122.214 E16.44104
G1 X93.977 Y121.551 E16.46593
G1 X94 Y121.516 E16.46733
G1 X94 Y111.617 E16.79657
G1 X94.04 Y110.87 E16.82145
G1 X94.159 Y110.132 E16.84631
G1 X94.357 Y109.41 E16.87121
G1 X94.63 Y108.714 E16.89608
G1 X94.977 Y108.051 E16.92097
G1 X95.392 Y107.428 E16.94586
G1 X96.05 Y106.667 E16.97933
G1 X96.167 Y106.55 E16.98483
G1 X96.724 Y106.05 E17.00972
G1 X97.33 Y105.613 E17.03457
G1 X97.98 Y105.242 E17.05947
G1 X98.666 Y104.943 E17.08436
G1 X99.38 Y104.719 E17.10924
G1 X100.113 Y104.572 E17.13411
G1 X101.117 Y104.5 E17.16759
G1 X104.5 Y104.5 E17.28011
G1 X104.5 Y100.117 E17.42589
G1 X104.54 Y99.37 E17.45077
G1 X104.659 Y98.632 E17.47563
G1 X104.857 Y97.91 E17.50053
G1 X105.13 Y97.214 E17.5254
G1 X105.477 Y96.551 E17.55029
G1 X105.892 Y95.928 E17.57518
G0 F9000 X106.289 Y96.067
G1 F1800 X106.833 Y95.45 E17.60254
G1 X106.95 Y95.333 E17.60805
G1 X107.491 Y94.849 E17.63219
G1 X108.082 Y94.426 E17.65636
G1 X108.716 Y94.072 E17.68051
G1 X109.385 Y93.789 E17.70467
G1 X110.081 Y93.581 E17.72883
G1 X110.796 Y93.451 E17.75301
G1 X111.617 Y93.4 E17.78036
G1 X123.383 Y93.4 E18.1717
G1 X124.108 Y93.44 E18.19585
G1 X124.825 Y93.559 E18.22003
G1 X125.524 Y93.757 E18.24419
G1 X126.197 Y94.03 E18.26835
G1 X126.836 Y94.375 E18.2925
G1 X127.433 Y94.789 E18.31666
G1 X128.05 Y95.333 E18.34402
G1 X128.167 Y95.45 E18.34953
G1 X128.651 Y95.991 E18.37367
G1 X129.074 Y96.582 E18.39784
G1 X129.428 Y97.216 E18.42199
G1 X129.711 Y97.885 E18.44615
G1 X129.919 Y98.581 E18.47031
G1 X130.049 Y99.296 E18.49448
G1 X130.1 Y100.117 E18.52184
G1 X130.1 Y104.9 E18.68093
G1 X133.883 Y104.9 E18.80675
G1 X134.608 Y104.94 E18.8309
G1 X135.325 Y105.059 E18.85507
G1 X136.024 Y105.257 E18.87924
G1 X136.697 Y105.53 E18.90339
G1 X137.336 Y105.875 E18.92755
G1 X137.933 Y106.289 E18.95171
G1 X138.55 Y106.833 E18.97907
G1 X138.667 Y106.95 E18.98457
G1 X139.151 Y107.491 E19.00872
G1 X139.574 Y108.082 E19.03289
G1 X139.928 Y108.716 E19.05704
G1 X140.211 Y109.385 E19.0812
G1 X140.419 Y110.081 E19.10536
G1 X140.549 Y110.796 E19.12953
G1 X140.6 Y111.617 E19.15689
G1 X140.6 Y123.383 E19.54823
G1 X140.56 Y124.108 E19.57238
G1 X140.441 Y124.825 E19.59655
G1 X140.243 Y125.524 E19.62072
G1 X139.97 Y126.197 E19.64487
G1 X139.625 Y126.836 E19.66903
G1 X139.211 Y127.433 E19.69319
G1 X138.667 Y128.05 E19.72055
G1 X138.55 Y128.167 E19.72605
G1 X138.009 Y128.651 E19.7502
G1 X137.418 Y129.074 E19.77437
G1 X136.784 Y129.428 E19.79852
G1 X136.115 Y129.711 E19.82268
G1 X135.419 Y129.919 E19.84684
G1 X134.704 Y130.049 E19.87101
G1 X133.883 Y130.1 E19.89837
G1 X130.1 Y130.1 E20.02419
G1 X130.1 Y134.883 E20.18328
G1 X130.06 Y135.608 E20.20743
G1 X129.941 Y136.325 E20.2316
G1 X129.743 Y137.024 E20.25576
G1 X129.47 Y137.697 E20.27992
G1 X129.125 Y138.336 E20.30407
G1 X128.711 Y138.933 E20.32824
G1 X128.167 Y139.55 E20.3556
G1 X128.05 Y139.667 E20.3611
G1 X127.509 Y140.151 E20.38524
G1 X126.918 Y140.574 E20.40942
G1 X126.284 Y140.928 E20.43357
G1 X125.615 Y141.211 E20.45773
G1 X124.919 Y141.419 E20.48189
G1 X124.204 Y141.549 E20.50606
G1 X123.383 Y141.6 E20.53342
G1 X114.617 Y141.6 E20.82498
G1 X114.55 Y141.667 E20.82813
G1 X114.009 Y142.151 E20.85227
G1 X113.418 Y142.574 E20.87644
G1 X112.784 Y142.928 E20.90059
G1 X112.115 Y143.211 E20.92475
G1 X111.419 Y143.419 E20.94892
G1 X110.704 Y143.549 E20.97309
G1 X109.883 Y143.6 E21.00045
G1 X100.117 Y143.6 E21.32526
G1 X99.392 Y143.56 E21.34941
G1 X98.675 Y143.441 E21.37359
G1 X97.976 Y143.243 E21.39775
G1 X97.303 Y142.97 E21.42191
G1 X96.664 Y142.625 E21.44606
G1 X96.067 Y142.211 E21.47022
