;FLAVOR:Marlin
;TIME:300
;Filament used: 0.181295m
;Layer height: 0.2
;MINX:101.5
;MINY:100.5
;MINZ:0.2
;MAXX:133.5
;MAXY:134.5
;MAXZ:5
;Generated with Cura_SteamEngine 4.12.0
M140 S50
M105
M190 S50
M104 S200
M105
M109 S200
M82 ;absolute extrusion mode
; Ender 3 Custom Start G-code
G92 E0 ; Reset Extruder
G28 ; Home all axes
M420 S1 Z2 ;Enable ABL using saved Mesh and Fade Height
G1 Z2.0 F3000 ; Move Z Axis up little to prevent scratching of Heat Bed
G1 X0.1 Y20 Z0.3 F5000.0 ; Move to start position
G1 X0.1 Y200.0 Z0.3 F1500.0 E15 ; Draw the first line
G1 X0.4 Y200.0 Z0.3 F5000.0 ; Move to side a little
G1 X0.4 Y20 Z0.3 F1500.0 E30 ; Draw the second line
G92 E0 ; Reset Extruder
G1 Z2.0 F3000 ; Move Z Axis up little to prevent scratching of Heat Bed
G1 X5 Y20 Z0.3 F5000.0 ; Move over to prevent blob squish
G92 E0
G92 E0
G1 F1500 E-6
;LAYER_COUNT:22
;LAYER:0
M107
G0 F9000 X104.698 Y103.764 Z0.2
;TYPE:SKIRT
G1 F1500 E0
G1 F1800 X105.386 Y103.127 E0.03119
G1 X106.126 Y102.551 E0.06237
G1 X106.912 Y102.039 E0.09357
G1 X107.739 Y101.597 E0.12476
G1 X108.601 Y101.227 E0.15596
G1 X109.491 Y100.931 E0.18716
G1 X110.403 Y100.713 E0.21835
G1 X111.33 Y100.572 E0.24953
G1 X112.201 Y100.513 E0.27857
G1 X112.522 Y100.504 E0.28925
G1 X112.83 Y100.5 E0.29949
G1 X121.793 Y100.5 E0.59761
G1 X122.649 Y100.511 E0.62608
G1 X123.585 Y100.565 E0.65726
G1 X124.513 Y100.697 E0.68844
G1 X125.427 Y100.909 E0.71964
G1 X126.319 Y101.198 E0.75083
G1 X127.184 Y101.561 E0.78203
G1 X128.014 Y101.997 E0.81321
G1 X128.805 Y102.502 E0.84443
G1 X129.549 Y103.073 E0.87562
G1 X130.242 Y103.705 E0.90682
G1 X130.879 Y104.393 E0.938
G1 X131.454 Y105.134 E0.9692
G1 X131.965 Y105.92 E1.00038
G1 X132.407 Y106.748 E1.0316
G1 X132.776 Y107.61 E1.06278
G1 X133.071 Y108.5 E1.09397
G1 X133.289 Y109.412 E1.12516
G1 X133.429 Y110.34 E1.15637
G1 X133.487 Y111.201 E1.18507
G1 X133.496 Y111.521 E1.19572
G1 X133.5 Y111.83 E1.206
G1 X133.499 Y122.9 E1.57419
G1 X133.49 Y123.627 E1.59837
G1 X133.439 Y124.564 E1.62958
G1 X133.307 Y125.492 E1.66076
G1 X133.098 Y126.406 E1.69194
G1 X132.811 Y127.299 E1.72314
G1 X132.449 Y128.165 E1.75436
G1 X132.015 Y128.996 E1.78554
G1 X131.511 Y129.787 E1.81673
G1 X130.942 Y130.532 E1.84791
G1 X130.311 Y131.227 E1.87913
G1 X129.624 Y131.865 E1.91032
G1 X128.885 Y132.442 E1.9415
G1 X128.099 Y132.954 E1.9727
G1 X127.273 Y133.397 E2.00388
G1 X126.411 Y133.769 E2.0351
G1 X125.522 Y134.065 E2.06627
G1 X124.61 Y134.285 E2.09747
G1 X123.683 Y134.426 E2.12866
G1 X122.799 Y134.487 E2.15813
G1 X122.478 Y134.496 E2.16881
G1 X122.17 Y134.5 E2.17905
G1 X113.065 Y134.499 E2.48189
G1 X112.367 Y134.49 E2.5051
G1 X111.431 Y134.438 E2.53628
G1 X110.502 Y134.306 E2.56749
G1 X109.588 Y134.096 E2.59869
G1 X108.695 Y133.809 E2.62988
G1 X107.83 Y133.446 E2.66108
G1 X106.999 Y133.012 E2.69227
G1 X106.208 Y132.508 E2.72346
G1 X105.463 Y131.938 E2.75466
G1 X104.769 Y131.307 E2.78586
G1 X104.132 Y130.62 E2.81702
G1 X103.555 Y129.88 E2.84823
G1 X103.043 Y129.094 E2.87943
G1 X102.6 Y128.267 E2.91063
G1 X102.229 Y127.406 E2.94181
G1 X101.933 Y126.516 E2.97301
G1 X101.714 Y125.604 E3.00421
G1 X101.573 Y124.677 E3.03539
G1 X101.513 Y123.788 E3.06503
G1 X101.504 Y123.455 E3.07611
G1 X101.5 Y123.158 E3.08599
G1 X101.501 Y112.025 E3.45627
G1 X101.51 Y111.36 E3.47839
G1 X101.563 Y110.424 E3.50957
G1 X101.695 Y109.495 E3.54078
G1 X101.906 Y108.581 E3.57198
G1 X102.194 Y107.689 E3.60316
G1 X102.557 Y106.824 E3.63436
G1 X102.992 Y105.993 E3.66555
G1 X103.496 Y105.203 E3.69672
G1 X104.066 Y104.458 E3.72792
G1 X104.698 Y103.764 E3.75914
G0 F9000 X105.089 Y103.939
G1 F1800 X105.774 Y103.323 E3.78978
G1 X106.51 Y102.77 E3.8204
G1 X107.291 Y102.282 E3.85103
G1 X108.111 Y101.864 E3.88164
G1 X108.965 Y101.519 E3.91228
G1 X109.845 Y101.249 E3.94289
G1 X110.745 Y101.057 E3.9735
G1 X111.659 Y100.943 E4.00414
G1 X112.212 Y100.913 E4.02256
G1 X112.533 Y100.904 E4.03324
G1 X112.83 Y100.9 E4.04312
G1 X121.793 Y100.9 E4.34123
G1 X122.643 Y100.911 E4.3695
G1 X123.562 Y100.964 E4.40012
G1 X124.473 Y101.097 E4.43074
G1 X125.369 Y101.308 E4.46135
G1 X126.243 Y101.596 E4.49196
G1 X127.09 Y101.959 E4.52261
G1 X127.901 Y102.394 E4.55322
G1 X128.671 Y102.898 E4.58383
G1 X129.395 Y103.467 E4.61446
G1 X130.067 Y104.097 E4.64509
G1 X130.682 Y104.782 E4.67571
G1 X131.235 Y105.518 E4.70633
G1 X131.722 Y106.299 E4.73694
G1 X132.139 Y107.12 E4.76757
G1 X132.484 Y107.974 E4.7982
G1 X132.753 Y108.854 E4.82881
G1 X132.945 Y109.755 E4.85945
G1 X133.058 Y110.668 E4.89005
G1 X133.087 Y111.212 E4.90817
G1 X133.096 Y111.532 E4.91882
G1 X133.1 Y111.83 E4.92873
G1 X133.099 Y122.895 E5.29675
G1 X133.09 Y123.622 E5.32093
G1 X133.039 Y124.541 E5.35155
G1 X132.908 Y125.453 E5.38219
G1 X132.698 Y126.349 E5.4128
G1 X132.412 Y127.224 E5.44342
G1 X132.051 Y128.071 E5.47404
G1 X131.617 Y128.883 E5.50466
G1 X131.115 Y129.655 E5.53529
G1 X130.547 Y130.38 E5.56592
G1 X129.919 Y131.053 E5.59654
G1 X129.235 Y131.669 E5.62716
G1 X128.5 Y132.223 E5.65777
G1 X127.72 Y132.712 E5.68839
G1 X126.9 Y133.131 E5.71902
G1 X126.047 Y133.477 E5.74963
G1 X125.167 Y133.748 E5.78026
G1 X124.267 Y133.941 E5.81087
G1 X123.353 Y134.056 E5.84151
G1 X122.788 Y134.087 E5.86033
G1 X122.467 Y134.096 E5.87101
G1 X122.17 Y134.1 E5.88089
G1 X113.07 Y134.099 E6.18356
G1 X112.372 Y134.09 E6.20678
G1 X111.453 Y134.038 E6.23739
G1 X110.542 Y133.907 E6.268
G1 X109.646 Y133.697 E6.29861
G1 X108.771 Y133.41 E6.32924
G1 X107.924 Y133.048 E6.35988
G1 X107.112 Y132.614 E6.3905
G1 X106.341 Y132.112 E6.4211
G1 X105.616 Y131.544 E6.45173
G1 X104.943 Y130.915 E6.48237
G1 X104.328 Y130.231 E6.51296
G1 X103.774 Y129.496 E6.54358
G1 X103.286 Y128.715 E6.57421
G1 X102.867 Y127.895 E6.60483
G1 X102.521 Y127.042 E6.63545
G1 X102.251 Y126.162 E6.66607
G1 X102.058 Y125.261 E6.69671
G1 X101.944 Y124.348 E6.72731
G1 X101.913 Y123.777 E6.74633
G1 X101.904 Y123.444 E6.75741
G1 X101.9 Y123.158 E6.76693
G1 X101.901 Y112.031 E7.13701
G1 X101.91 Y111.366 E7.15913
G1 X101.962 Y110.446 E7.18978
G1 X102.094 Y109.535 E7.2204
G1 X102.305 Y108.639 E7.25101
G1 X102.592 Y107.764 E7.28164
G1 X102.955 Y106.918 E7.31226
G1 X103.389 Y106.106 E7.34288
G1 X103.892 Y105.335 E7.3735
G1 X104.461 Y104.611 E7.40413
G1 X105.089 Y103.939 E7.43472
G0 F9000 X105.481 Y104.117
G1 F1800 X106.162 Y103.524 E7.46475
G1 X106.894 Y102.994 E7.49481
G1 X107.669 Y102.531 E7.52484
G1 X108.482 Y102.138 E7.55487
G1 X109.327 Y101.818 E7.58493
G1 X110.196 Y101.575 E7.61494
G1 X111.084 Y101.409 E7.64498
G1 X112.223 Y101.313 E7.683
G1 X112.544 Y101.304 E7.69368
G1 X112.83 Y101.3 E7.7032
G1 X121.793 Y101.3 E8.00131
G1 X122.637 Y101.311 E8.02938
G1 X123.539 Y101.364 E8.05943
G1 X124.432 Y101.496 E8.08946
G1 X125.31 Y101.707 E8.11949
G1 X126.166 Y101.995 E8.14953
G1 X126.993 Y102.357 E8.17956
G1 X127.785 Y102.792 E8.20961
G1 X128.536 Y103.294 E8.23965
G1 X129.239 Y103.861 E8.26969
G1 X129.889 Y104.488 E8.29973
G1 X130.481 Y105.17 E8.32977
G1 X131.011 Y105.901 E8.3598
G1 X131.473 Y106.677 E8.38984
G1 X131.866 Y107.49 E8.41987
G1 X132.184 Y108.335 E8.4499
G1 X132.427 Y109.205 E8.47994
G1 X132.592 Y110.093 E8.50998
G1 X132.687 Y111.223 E8.5477
G1 X132.696 Y111.543 E8.55835
G1 X132.7 Y111.83 E8.5679
G1 X132.699 Y122.89 E8.93575
G1 X132.69 Y123.617 E8.95993
G1 X132.639 Y124.519 E8.98998
G1 X132.508 Y125.413 E9.02004
G1 X132.299 Y126.291 E9.05005
G1 X132.013 Y127.148 E9.0801
G1 X131.652 Y127.976 E9.11015
G1 X131.22 Y128.768 E9.14015
G1 X130.719 Y129.52 E9.17021
G1 X130.153 Y130.224 E9.20025
G1 X129.528 Y130.875 E9.23027
G1 X128.847 Y131.469 E9.26032
G1 X128.116 Y132 E9.29037
G1 X127.342 Y132.464 E9.32039
G1 X126.529 Y132.858 E9.35044
G1 X125.685 Y133.178 E9.38046
G1 X124.815 Y133.423 E9.41052
G1 X123.928 Y133.589 E9.44053
G1 X122.777 Y133.687 E9.47895
G1 X122.456 Y133.696 E9.48963
G1 X122.17 Y133.7 E9.49915
G1 X113.075 Y133.699 E9.80165
G1 X112.377 Y133.69 E9.82487
G1 X111.476 Y133.639 E9.85488
G1 X110.582 Y133.507 E9.88494
G1 X109.704 Y133.298 E9.91496
G1 X108.847 Y133.011 E9.94502
G1 X108.02 Y132.65 E9.97503
G1 X107.227 Y132.217 E10.00508
G1 X106.476 Y131.716 E10.03511
G1 X105.772 Y131.15 E10.06515
G1 X105.121 Y130.524 E10.09519
G1 X104.528 Y129.843 E10.12522
G1 X103.998 Y129.112 E10.15525
G1 X103.534 Y128.337 E10.1853
G1 X103.14 Y127.524 E10.21535
G1 X102.82 Y126.68 E10.24537
G1 X102.576 Y125.81 E10.27542
G1 X102.41 Y124.922 E10.30547
G1 X102.313 Y123.767 E10.34402
G1 X102.304 Y123.434 E10.3551
G1 X102.3 Y123.158 E10.36428
G1 X102.301 Y112.036 E10.7342
G1 X102.31 Y111.371 E10.75632
G1 X102.362 Y110.469 E10.78637
G1 X102.494 Y109.576 E10.81639
G1 X102.704 Y108.698 E10.84642
G1 X102.991 Y107.841 E10.87648
G1 X103.353 Y107.014 E10.9065
G1 X103.786 Y106.222 E10.93653
G1 X104.288 Y105.471 E10.96657
G1 X104.855 Y104.767 E10.99664
G1 X105.481 Y104.117 E11.02665
G1 F1500 E5.02665
;MESH:clamp.stl
G0 F9000 X112.088 Y111.089
G0 X112.914 Y111.914
G0 X115.507 Y112.692
G0 X115.128 Y113.878
G0 X116.567 Y115.352
G0 X117.282 Y115.791
;TYPE:WALL-INNER
G1 F1500 E11.02665
G1 F1800 X117.718 Y115.791 E11.04115
G1 X118.139 Y115.687 E11.05558
G1 X118.526 Y115.486 E11.07008
G1 X118.851 Y115.197 E11.08455
G1 X119.098 Y114.839 E11.09901
G1 X119.252 Y114.431 E11.11352
G1 X119.304 Y114 E11.12796
G1 X119.252 Y113.569 E11.14239
G1 X119.098 Y113.161 E11.1569
G1 X118.851 Y112.803 E11.17136
G1 X118.526 Y112.514 E11.18583
G1 X118.139 Y112.313 E11.20033
G1 X117.718 Y112.209 E11.21476
G1 X117.282 Y112.209 E11.22926
G1 X116.861 Y112.313 E11.24368
G1 X116.474 Y112.514 E11.25819
G1 X116.149 Y112.803 E11.27265
G1 X115.902 Y113.161 E11.28712
G1 X115.748 Y113.569 E11.30162
G1 X115.696 Y114 E11.31606
G1 X115.748 Y114.431 E11.3305
G1 X115.902 Y114.839 E11.34501
G1 X116.149 Y115.197 E11.35947
G1 X116.474 Y115.486 E11.37394
G1 X116.861 Y115.687 E11.38844
G1 X117.282 Y115.791 E11.40286
G0 F9000 X117.331 Y115.391
;TYPE:WALL-OUTER
G1 F1800 X117.669 Y115.391 E11.41411
G1 X117.997 Y115.31 E11.42534
G1 X118.297 Y115.154 E11.43659
G1 X118.549 Y114.93 E11.4478
G1 X118.741 Y114.652 E11.45904
G1 X118.861 Y114.335 E11.47031
G1 X118.901 Y114 E11.48154
G1 X118.861 Y113.665 E11.49276
G1 X118.741 Y113.348 E11.50403
G1 X118.549 Y113.07 E11.51527
G1 X118.297 Y112.846 E11.52648
G1 X117.997 Y112.69 E11.53773
G1 X117.669 Y112.609 E11.54897
G1 X117.331 Y112.609 E11.56021
G1 X117.003 Y112.69 E11.57144
G1 X116.703 Y112.846 E11.58269
G1 X116.451 Y113.07 E11.59391
G1 X116.259 Y113.348 E11.60514
G1 X116.139 Y113.665 E11.61642
G1 X116.099 Y114 E11.62764
G1 X116.139 Y114.335 E11.63886
G1 X116.259 Y114.652 E11.65013
G1 X116.451 Y114.93 E11.66137
G1 X116.703 Y115.154 E11.67258
G1 X117.003 Y115.31 E11.68383
G1 X117.331 Y115.391 E11.69507
G0 F9000 X117.278 Y115.827
G0 X119.607 Y115.106
G0 X119.493 Y112.692
G0 X121.318 Y112.682
G0 X121.5 Y122.5
;TYPE:WALL-INNER
G1 F1800 X113.5 Y122.5 E11.96115
G1 X113.5 Y112.5 E12.29375
G1 X115.887 Y112.5 E12.37314
G1 X115.847 Y112.536 E12.37493
G1 X115.545 Y112.974 E12.39263
G1 X115.357 Y113.473 E12.41036
G1 X115.293 Y114 E12.42802
G1 X115.357 Y114.527 E12.44568
G1 X115.545 Y115.026 E12.46341
G1 X115.847 Y115.464 E12.48111
G1 X116.245 Y115.818 E12.49882
G1 X116.719 Y116.064 E12.51659
G1 X117.233 Y116.191 E12.53419
G1 X117.767 Y116.191 E12.55196
G1 X118.281 Y116.064 E12.56957
G1 X118.755 Y115.818 E12.58733
G1 X119.153 Y115.464 E12.60504
G1 X119.455 Y115.026 E12.62274
G1 X119.643 Y114.527 E12.64047
G1 X119.707 Y114 E12.65813
G1 X119.643 Y113.473 E12.67579
G1 X119.455 Y112.974 E12.69352
G1 X119.153 Y112.536 E12.71122
G1 X119.113 Y112.5 E12.71301
G1 X121.5 Y112.5 E12.7924
G1 X121.5 Y122.5 E13.125
G0 F9000 X121.9 Y122.9
G1 F1800 X113.1 Y122.9 E13.41769
G1 X113.1 Y112.1 E13.7769
G1 X116.861 Y112.1 E13.90199
G1 X117.282 Y112.1 E13.90758
G1 X117.718 Y112.1 E13.91154
G1 X118.139 Y112.1 E13.91714
G1 X121.9 Y112.1 E14.04223
G1 X121.9 Y122.9 E14.40144
G0 F9000 X122.3 Y123.3
;TYPE:WALL-OUTER
G1 F1800 X112.7 Y123.3 E14.72073
G1 X112.7 Y111.7 E15.10655
G1 X122.3 Y111.7 E15.42585
G1 X122.3 Y123.3 E15.81167
G0 F9000 X122.03 Y123.03
G0 X121.39 Y122.11
G0 X121.11 Y122.11
;TYPE:SKIN
G1 F1800 X113.89 Y122.11 E16.0518
G1 X113.89 Y112.89 E16.35846
G1 X115.159 Y112.89 E16.40067
G1 X114.975 Y113.38 E16.41808
G1 X114.901 Y114 E16.43885
G1 X114.975 Y114.62 E16.45961
G1 X115.196 Y115.208 E16.48051
G1 X115.553 Y115.724 E16.50138
G1 X116.022 Y116.142 E16.52227
G1 X116.581 Y116.431 E16.5432
G1 X117.186 Y116.581 E16.56393
G1 X117.814 Y116.581 E16.58482
G1 X118.419 Y116.431 E16.60555
G1 X118.978 Y116.142 E16.62648
G1 X119.447 Y115.724 E16.64738
G1 X119.804 Y115.208 E16.66825
G1 X120.025 Y114.62 E16.68914
G1 X120.099 Y114 E16.70991
G1 X120.025 Y113.38 E16.73067
G1 X119.841 Y112.89 E16.74808
G1 X121.11 Y112.89 E16.79029
G1 X121.11 Y122.11 E17.09695
G0 F9000 X121.39 Y122.11
G0 X114.595 Y122.39
G0 X114.595 Y121.949
G1 F1800 X114.049 Y121.403 E17.12263
G0 F9000 X114.049 Y120.837
G1 F1800 X115.161 Y121.949 E17.17494
G0 F9000 X115.727 Y121.949
G1 F1800 X114.049 Y120.271 E17.25386
G0 F9000 X114.049 Y119.706
G1 F1800 X116.292 Y121.949 E17.35937
G0 F9000 X116.858 Y121.949
G1 F1800 X114.049 Y119.14 E17.49149
G0 F9000 X114.049 Y118.574
G1 F1800 X117.424 Y121.949 E17.65024
G0 F9000 X117.989 Y121.949
G1 F1800 X114.049 Y118.009 E17.83557
G0 F9000 X114.049 Y117.443
G1 F1800 X118.555 Y121.949 E18.04752
G0 F9000 X119.121 Y121.949
G1 F1800 X114.049 Y116.877 E18.28609
G0 F9000 X114.049 Y116.311
G1 F1800 X119.687 Y121.949 E18.55128
G0 F9000 X120.252 Y121.949
G1 F1800 X114.049 Y115.746 E18.84305
G0 F9000 X114.049 Y115.18
G1 F1800 X120.818 Y121.949 E19.16145
G0 F9000 X120.949 Y121.515
G1 F1800 X114.049 Y114.614 E19.48603
G0 F9000 X114.049 Y114.049
G1 F1800 X114.914 Y114.914 E19.52671
G0 F9000 X114.764 Y114.198
G1 F1800 X114.049 Y113.483 E19.56034
G0 F9000 X114.181 Y113.05
G1 F1800 X114.781 Y113.65 E19.58857
G0 F9000 X114.877 Y113.18
G1 F1800 X114.747 Y113.05 E19.59468
G0 F9000 X114.747 Y112.61
G0 X115.507 Y112.692
G0 X115.327 Y113.1
G0 X116.705 Y116.174
G0 X116.599 Y116.599
G1 F1800 X120.949 Y120.949 E19.79929
G0 F9000 X120.949 Y120.384
G1 F1800 X117.306 Y116.741 E19.97065
G0 F9000 X117.864 Y116.733
G1 F1800 X120.949 Y119.818 E20.11576
G0 F9000 X120.949 Y119.252
G1 F1800 X118.318 Y116.621 E20.23951
G0 F9000 X118.718 Y116.456
G1 F1800 X120.949 Y118.687 E20.34445
G0 F9000 X120.949 Y118.121
G1 F1800 X119.087 Y116.258 E20.43206
G0 F9000 X119.386 Y115.992
G1 F1800 X120.949 Y117.555 E20.50557
G0 F9000 X120.949 Y116.99
G1 F1800 X119.658 Y115.698 E20.56632
G0 F9000 X119.889 Y115.364
G1 F1800 X120.949 Y116.424 E20.61618
G0 F9000 X120.949 Y115.858
G1 F1800 X120.063 Y114.972 E20.65786
G0 F9000 X120.194 Y114.537
G1 F1800 X120.949 Y115.293 E20.69339
G0 F9000 X120.949 Y114.727
G1 F1800 X120.254 Y114.031 E20.72611
G0 F9000 X120.187 Y113.399
G1 F1800 X120.949 Y114.161 E20.76195
G0 F9000 X120.949 Y113.595
G1 F1800 X120.404 Y113.05 E20.78758
G0 F9000 X119.613 Y112.825
;TYPE:SKIN
G1 F1800 X119.471 Y112.683 E20.79092
G0 F9000 X119.44 Y112.664
G0 X117.697 Y112.37
G0 X115.56 Y112.664
G0 X115.534 Y112.706
G1 F1800 X115.488 Y112.66 E20.79201
G0 F9000 X116.091 Y112.414
G1 F1800 X116.291 Y112.332 E20.79976
G0 F9000 X116.234 Y112.275
G0 X118.78 Y112.275
G1 F1800 X118.958 Y112.453 E20.80395
;MESH:NONMESH
G0 F300 X118.958 Y112.453 Z0.44
G0 F9000 X119.142 Y114
G0 X119.095 Y114.392
G0 X118.954 Y114.764
G0 X118.729 Y115.089
G0 X118.433 Y115.352
G0 X117.282 Y115.791
;TIME_ELAPSED:32.185157
;LAYER:1
M106 S85
;TYPE:WALL-INNER
;MESH:clamp.stl
G1 F1800 X117.718 Y115.791 E20.82135
G1 X118.139 Y115.687 E20.83866
G1 X118.526 Y115.486 E20.85606
G1 X118.851 Y115.197 E20.87342
G1 X119.098 Y114.839 E20.89078
G1 X119.252 Y114.431 E20.90819
G1 X119.304 Y114 E20.92551
G1 X119.252 Y113.569 E20.94284
G1 X119.098 Y113.161 E20.96024
G1 X118.851 Y112.803 E20.9776
G1 X118.526 Y112.514 E20.99496
G1 X118.139 Y112.313 E21.01237
G1 X117.718 Y112.209 E21.02968
G1 X117.282 Y112.209 E21.04708
G1 X116.861 Y112.313 E21.06439
G1 X116.474 Y112.514 E21.08179
G1 X116.149 Y112.803 E21.09915
G1 X115.902 Y113.161 E21.11651
G1 X115.748 Y113.569 E21.13391
G1 X115.696 Y114 E21.15124
G1 X115.748 Y114.431 E21.16857
G1 X115.902 Y114.839 E21.18597
G1 X116.149 Y115.197 E21.20333
